!!!!SEGMENT: pl-sa--l-1643--060_anonim--magnifikat-5-toni-a-8-v.krn
!!!cenid: 16xx:1418
!!!COM: Anonim
!!!COM-rismid: pe30004985
!!!CDT:
!!!CNT:
!!!OTL: Magnifikat 5 toni A 8 V
!!!PDT:
!!!AGN: Sacred
!!!SMS-siglum: PL-SA
!!!SMS-shelfmark: L 1643
!!!SMS-shelfwork: 060 W
!!!SMS-variant:
!!!SMS-altvar:
!!!NIFC-rismid: 1001064617
!!!URL-scan: http://repozytorium.nifc.pl/skany/pl-sa-nut--l1643
!!!ONB-nifc: UWAGA: 8 ksiąg. Primi chori: 1mus Cantus (x), C 2dus (94-95), C 3tius (91-93), Bassus (38-40); Secondi chori: Primus Cantus (x), C 2dus (35-37), Altus (37-39), Bassus (37-39). UWAGA: Nie dodawać pustych linii, chyba że w rękopisie pojawiają się dodatkowe oznaczenia dotyczące pełnej obsady (a 4, a 8 itp.)
!!!key:
**kern	**text	**kern	**text	**kern	**text	**kern	**kern	**text	**kern	**text	**kern	**text	**kern
*group2	*	*group2	*	*group2	*	*group2	*group1	*	*group1	*	*group1	*	*group1
*part8	*part8	*part7	*part7	*part6	*part6	*part5	*part4	*part4	*part3	*part3	*part2	*part2	*part1
*staff8	*staff8	*staff7	*staff7	*staff6	*staff6	*staff5	*staff4	*staff4	*staff3	*staff3	*staff2	*staff2	*staff1
*Iempty	*	*Iempty	*	*Iempty	*	*Iempty	*Iempty	*	*Iempty	*	*Iempty	*	*Iempty
*I"Baſsus 2di Chori.	*	*I"Altus secundi Chori.	*	*I"Cantus 2dus Secundi Chori.	*	*I"Primus Cantus 2di Chori	*I"Bassus Primi Chori.	*	*I"Cantus 3tius Primi Chori	*	*I"Cantus 2dus Primi Chori.	*	*I"Im(us) Cantus Primi Chori
*I'[Coro 2 B]	*	*I'[Coro 2 A]	*	*I'[Coro 2 C 2]	*	*	*I'[Coro 1 B]	*	*I'[Coro 1 C 3]	*	*I'[Coro 1 C 2 ]	*	*I'[Coro 1 C 1]
*clefC3	*	*clefC2	*	*clefC1	*	*	*clefC3	*	*clefC2	*	*clefC1	*	*
*k[b-]	*	*k[b-]	*	*k[b-]	*	*	*k[b-]	*	*k[b-]	*	*k[b-]	*	*
*F:	*	*F:	*	*F:	*	*	*F:	*	*F:	*	*F:	*	*
*M2/2	*	*M2/2	*	*M2/2	*	*	*M2/2	*	*M2/2	*	*M2/2	*	*
*met(C|)	*	*met(C|)	*	*met(C|)	*	*	*met(C|)	*	*met(C|)	*	*met(C|)	*	*
=1-	=1-	=1-	=1-	=1-	=1-	=1-	=1-	=1-	=1-	=1-	=1-	=1-	=1-
0r	.	0r	.	0r	.	1ryy	1f	Et	1a	Et	1a	Et	1ryy
=2-	=2-	=2-	=2-	=2-	=2-	=2-	=2-	=2-	=2-	=2-	=2-	=2-	=2-
.	.	.	.	.	.	2ryy	2f\	e-	2f\	e-	2a\	e-	1ryy
.	.	.	.	.	.	2ryy	2d\	-xul-	2.f\	-xul-	2f/	-xul-	.
=3-	=3-	=3-	=3-	=3-	=3-	=3-	=3-	=3-	=3-	=3-	=3-	=3-	=3-
1r	.	1r	.	1r	.	1ryy	1c	-ta-	.	.	1g	-ta-	1ryy
.	.	.	.	.	.	.	.	.	8e/L	.	.	.	.
.	.	.	.	.	.	.	.	.	8d/J	.	.	.	.
.	.	.	.	.	.	.	.	.	2e/	-ta-	.	.	.
=4-	=4-	=4-	=4-	=4-	=4-	=4-	=4-	=4-	=4-	=4-	=4-	=4-	=4-
1f	Et	1a	Et	1cc	Et	1ryy	2f\	-vit	2f\	-vit	2a\	-vit	1ryy
.	.	.	.	.	.	.	2r	.	2r	.	2r	.	.
=5-	=5-	=5-	=5-	=5-	=5-	=5-	=5-	=5-	=5-	=5-	=5-	=5-	=5-
2f\	e-	2f\	e-	2a\	e-	0ryy	0r	.	0r	.	0r	.	0ryy
2d\	-xul-	2.f\	-xul-	2f/	-xul-	.	.	.	.	.	.	.	.
=6-	=6-	=6-	=6-	=6-	=6-	=6-	=6-	=6-	=6-	=6-	=6-	=6-	=6-
1c	-ta-	.	.	1g	-ta-	.	.	.	.	.	.	.	.
!	!	!LO:TX:a:t=P:problem=brak belki	!	!	!	!	!	!	!	!	!	!	!
!	!	!LO:N:vis=4	!	!	!	!	!	!	!	!	!	!	!
.	.	8e/	-ta-	.	.	.	.	.	.	.	.	.	.
!	!	!LO:N:vis=4	!	!	!	!	!	!	!	!	!	!	!
.	.	8d/	.	.	.	.	.	.	.	.	.	.	.
.	.	2e/	.	.	.	.	.	.	.	.	.	.	.
=7-	=7-	=7-	=7-	=7-	=7-	=7-	=7-	=7-	=7-	=7-	=7-	=7-	=7-
2f\	-uit	2f\	-uit	2a\	-uit	2ryy	2r	.	2r	.	2r	.	2ryy
2r	.	2r	.	2r	.	2.ryy	2.f\	Spi-	2.a\	spi-	2.a\	ſpi-	2.ryy
=8-	=8-	=8-	=8-	=8-	=8-	=8-	=8-	=8-	=8-	=8-	=8-	=8-	=8-
0r	.	0r	.	0r	.	.	.	.	.	.	.	.	.
.	.	.	.	.	.	2.ryy	4f\	-ri-	4a\	-ri-	4a\	-ri-	2.ryy
.	.	.	.	.	.	.	2f\	-tus	2f\	-tus	2a\	tuſ	.
=9-	=9-	=9-	=9-	=9-	=9-	=9-	=9-	=9-	=9-	=9-	=9-	=9-	=9-
.	.	.	.	.	.	1ryy	4B-/	me-	2.f\	me-	1b-	me-	1ryy
.	.	.	.	.	.	.	4c/	.	.	.	.	.	.
.	.	.	.	.	.	.	4d/	.	.	.	.	.	.
.	.	.	.	.	.	.	4e\	.	4g\	.	.	.	.
=10-	=10-	=10-	=10-	=10-	=10-	=10-	=10-	=10-	=10-	=10-	=10-	=10-	=10-
2r	.	2r	.	2r	.	1ryy	2f\	-us	2a\	-us	2a\	uſ	1ryy
2.B-/	spi-	2.f\	spi-	2.b-\	spi-	.	2r	.	2r	.	2r	.	.
=11-	=11-	=11-	=11-	=11-	=11-	=11-	=11-	=11-	=11-	=11-	=11-	=11-	=11-
.	.	.	.	.	.	0ryy	0r	.	0r	.	0r	.	0ryy
4B-/	-ri-	4f\	-ri-	4b-\	-ri-	.	.	.	.	.	.	.	.
*custos:F	*	*	*	*	*	*	*	*	*	*	*	*	*
!LO:LB:g=original	!	!	!	!	!	!	!	!	!	!	!	!	!
2F/	-tus	2a\	-tus	2a\	-tus	.	.	.	.	.	.	.	.
=12-	=12-	=12-	=12-	=12-	=12-	=12-	=12-	=12-	=12-	=12-	=12-	=12-	=12-
4G/	me-	1g	me-	1b-	me	.	.	.	.	.	.	.	.
4A/	.	.	.	.	.	.	.	.	.	.	.	.	.
4B-/	.	.	.	.	.	.	.	.	.	.	.	.	.
4c/	.	.	.	.	.	.	.	.	.	.	.	.	.
=13-	=13-	=13-	=13-	=13-	=13-	=13-	=13-	=13-	=13-	=13-	=13-	=13-	=13-
!	!	!LO:TX:b:t=P:problem=# below	!	!	!	!	!	!	!	!	!	!	!
!	!	!LO:N:acc=#	!	!	!	!	!	!	!	!	!	!	!
2d\	-us	2f#X\	-us	2a\	us	1ryy	2r	.	2r	.	2r	.	1ryy
2r	.	2r	.	2r	.	.	2F/	in	2a\	in	2cc\	in	.
=14-	=14-	=14-	=14-	=14-	=14-	=14-	=14-	=14-	=14-	=14-	=14-	=14-	=14-
1r	.	1r	.	1r	.	1ryy	1B-	de-	2.f\	de-	1b-	de-	1ryy
.	.	.	.	.	.	.	.	.	4g\	.	.	.	.
=15-	=15-	=15-	=15-	=15-	=15-	=15-	=15-	=15-	=15-	=15-	=15-	=15-	=15-
2r	.	2r	.	2r	.	1ryy	2F/	-o	2a\	-o	2a\	-o	1ryy
2B-/	in	1b-\	in	2b-\	in	.	2r	.	2r	.	2r	.	.
=16-	=16-	=16-	=16-	=16-	=16-	=16-	=16-	=16-	=16-	=16-	=16-	=16-	=16-
4f\	De-	.	.	1cc	de-	1ryy	1r	.	1r	.	1r	.	1ryy
4e\	.	.	.	.	.	.	.	.	.	.	.	.	.
4d\	.	2a\	de-	.	.	.	.	.	.	.	.	.	.
4c/	.	.	.	.	.	.	.	.	.	.	.	.	.
=17-	=17-	=17-	=17-	=17-	=17-	=17-	=17-	=17-	=17-	=17-	=17-	=17-	=17-
2B-/	-o	2b-\	-o	2b-\	-o	1ryy	2r	.	2r	.	2r	.	1ryy
!	!	!	!	!	!	!	!	!	!LO:TX:t=P:problem=nuta niewidoczna	!	!	!	!
2r	.	2r	.	2r	.	.	2c\	in	2g\	in	2cc\	in	.
=18-	=18-	=18-	=18-	=18-	=18-	=18-	=18-	=18-	=18-	=18-	=18-	=18-	=18-
1r	.	1r	.	1r	.	1ryy	1f	de-	1a	de-	1cc	de-	1ryy
=19-	=19-	=19-	=19-	=19-	=19-	=19-	=19-	=19-	=19-	=19-	=19-	=19-	=19-
2r	.	2r	.	2r	.	1ryy	2c/	-o	2g\	-o	2cc\	-o	1ryy
*	*	*	*	*	*	*	*custos:F	*	*	*	*	*	*
*	*	*	*	*	*	*	*	*	*custos:a	*	*	*	*
!	!	!	!	!	!	!	!LO:LB:g=original	!	!	!	!	!	!
!	!	!	!	!	!	!	!	!	!LO:LB:g=original	!	!	!	!
2f\	in	2a\	in	2cc\	in	.	2ryy	.	2r	.	2r	.	.
=20-	=20-	=20-	=20-	=20-	=20-	=20-	=20-	=20-	=20-	=20-	=20-	=20-	=20-
4B-/	De-	1b-	de-	1b-	de-	1ryy	1ryy	.	1r	.	1r	.	1ryy
4c/	.	.	.	.	.	.	.	.	.	.	.	.	.
4d\	-o	.	.	.	.	.	.	.	.	.	.	.	.
4e\	.	.	.	.	.	.	.	.	.	.	.	.	.
=21-	=21-	=21-	=21-	=21-	=21-	=21-	=21-	=21-	=21-	=21-	=21-	=21-	=21-
2f\	.	2a\	-o	2cc\	-o	1ryy	2ryy	.	2r	.	2r	.	1ryy
2r	.	2r	.	2r	.	.	2F/	in	2a\	in	2cc\	in	.
=22-	=22-	=22-	=22-	=22-	=22-	=22-	=22-	=22-	=22-	=22-	=22-	=22-	=22-
1r	.	1r	.	1r	.	1ryy	1c	de-	1g	de-	1cc	de-	1ryy
=23-	=23-	=23-	=23-	=23-	=23-	=23-	=23-	=23-	=23-	=23-	=23-	=23-	=23-
2r	.	2r	.	2r	.	1ryy	2F/	-o	2a\	-o	2cc\	-o	1ryy
*	*	*custos:a	*	*	*	*	*	*	*	*	*	*	*
!	!	!LO:LB:g=original	!	!	!	!	!	!	!	!	!	!	!
1f\	ſa-	1a\	sa-	1cc\	sa-	.	2r	.	2r	.	2r	.	.
=24-	=24-	=24-	=24-	=24-	=24-	=24-	=24-	=24-	=24-	=24-	=24-	=24-	=24-
.	.	.	.	.	.	00ryy	00r	.	00r	.	00r	.	00ryy
2f\	-lu-	2fny\	-lu-	2a\	-lu-	.	.	.	.	.	.	.	.
=25-	=25-	=25-	=25-	=25-	=25-	=25-	=25-	=25-	=25-	=25-	=25-	=25-	=25-
2.B-/	-ta-	1f	-ta-	2.b-\	-ta-	.	.	.	.	.	.	.	.
4A/	.	.	.	4cc\	-ri	.	.	.	.	.	.	.	.
=26-	=26-	=26-	=26-	=26-	=26-	=26-	=26-	=26-	=26-	=26-	=26-	=26-	=26-
1G	-ri	1g	-ri	1dd	me-	.	.	.	.	.	.	.	.
=27-	=27-	=27-	=27-	=27-	=27-	=27-	=27-	=27-	=27-	=27-	=27-	=27-	=27-
4A/	me-	1e	me-	1cc	.	.	.	.	.	.	.	.	.
4B-/	.	.	.	.	.	.	.	.	.	.	.	.	.
2c/	.	.	.	.	.	.	.	.	.	.	.	.	.
=28-	=28-	=28-	=28-	=28-	=28-	=28-	=28-	=28-	=28-	=28-	=28-	=28-	=28-
2F/	-o	2f\	-o	2cc\	-o	2ryy	2r	.	2r	.	2r	.	1ryy
*	*	*	*	*	*	*	*	*	*	*	*custos:cc	*	*
!	!	!	!	!	!	!	!	!	!	!	!LO:LB:g=original	!	!
2r	.	2r	.	2r	.	1ryy	1f\	Sa-	1a\	ſa-	2cc\	ſa-	.
*custos:f	*	*	*	*	*	*	*	*	*	*	*	*	*
!LO:LB:g=original	!	!	!	!	!	!	!	!	!	!	!	!	!
=29-	=29-	=29-	=29-	=29-	=29-	=29-	=29-	=29-	=29-	=29-	=29-	=29-	=29-
00r	.	00r	.	00r	.	.	.	.	.	.	2cc\	-lu-	1ryy
.	.	.	.	.	.	2ryy	2f\	-lu-	2a\	-lu-	2a\	-ta-	.
=30-	=30-	=30-	=30-	=30-	=30-	=30-	=30-	=30-	=30-	=30-	=30-	=30-	=30-
.	.	.	.	.	.	1ryy	2.B-/	-ta-	1f	-ta-	2.b-\	-rij	1ryy
.	.	.	.	.	.	.	4A/	-ri	.	.	4cc\	.	.
=31-	=31-	=31-	=31-	=31-	=31-	=31-	=31-	=31-	=31-	=31-	=31-	=31-	=31-
.	.	.	.	.	.	1ryy	1G	me-	1g	-ri	1dd	.	1ryy
=32-	=32-	=32-	=32-	=32-	=32-	=32-	=32-	=32-	=32-	=32-	=32-	=32-	=32-
.	.	.	.	.	.	1ryy	1c	.	1g	me-	1g	me-	1ryy
=33-	=33-	=33-	=33-	=33-	=33-	=33-	=33-	=33-	=33-	=33-	=33-	=33-	=33-
2r	.	2r	.	2r	.	1ryy	2F/	-o	2f\	-o	2a\	-o	1ryy
*	*	*	*	*custos:c	*	*	*	*	*	*	*	*	*
!	!	!	!	!LO:LB:g=original	!	!	!	!	!	!	!	!	!
1f\	ſa-	1a\	sa-	1cc\	sa-	.	2r	.	2r	.	2r	.	.
=34-	=34-	=34-	=34-	=34-	=34-	=34-	=34-	=34-	=34-	=34-	=34-	=34-	=34-
.	.	.	.	.	.	0ryy	0r	.	0r	.	0r	.	0ryy
2c/	-lu-	2g\	-lu-	2cc\	-lu-	.	.	.	.	.	.	.	.
=35-	=35-	=35-	=35-	=35-	=35-	=35-	=35-	=35-	=35-	=35-	=35-	=35-	=35-
2d\	-ta-	2f\	-ta-	2a\	-ta-	.	.	.	.	.	.	.	.
2B-/	-ri	2.f\	-ri	4b-\	-ri	.	.	.	.	.	.	.	.
.	.	.	.	4a\	.	.	.	.	.	.	.	.	.
=36-	=36-	=36-	=36-	=36-	=36-	=36-	=36-	=36-	=36-	=36-	=36-	=36-	=36-
1c	me-	.	.	4g\	.	1ryy	1r	.	1r	.	1r	.	1ryy
.	.	8e/L	.	4f/	.	.	.	.	.	.	.	.	.
.	.	8d/J	.	.	.	.	.	.	.	.	.	.	.
.	.	2e\	me-	2g/	me-	.	.	.	.	.	.	.	.
=37-	=37-	=37-	=37-	=37-	=37-	=37-	=37-	=37-	=37-	=37-	=37-	=37-	=37-
2F/	-o	2f\	-o	2a,>\	-o	2ryy	2r	.	2r	.	2r	.	1.ryy
1f\	ſa-	1f\	sa-	1a\	sa-	1ryy	1F/	Sa-	1a\	sa-	1cc\	ſa-	.
=38-	=38-	=38-	=38-	=38-	=38-	=38-	=38-	=38-	=38-	=38-	=38-	=38-	=38-
.	.	.	.	.	.	.	.	.	.	.	.	.	.
2f\	-lu-	2c/	-lu-	2cc\	-lu-	2ryy	2F/	-lu-	2a\	-lu-	2a\	-lu-	2ryy
=39-	=39-	=39-	=39-	=39-	=39-	=39-	=39-	=39-	=39-	=39-	=39-	=39-	=39-
1B-	-ta-	1.f	-ta-	1b-	-ta-	1ryy	4B-/	-ta-	1f	-ta-	1b-	-ta-	1ryy
.	.	.	.	.	.	.	4c/	.	.	.	.	.	.
.	.	.	.	.	.	.	4d\	-ri	.	.	.	.	.
.	.	.	.	.	.	.	4e\	.	.	.	.	.	.
=40-	=40-	=40-	=40-	=40-	=40-	=40-	=40-	=40-	=40-	=40-	=40-	=40-	=40-
4F/	-ri	.	.	1a	-ri	1ryy	2.f\	me-	1f	-ri	0cc	-rij	0ryy
4G/	.	.	.	.	.	.	.	.	.	.	.	.	.
4A/	.	2c/	-ri	.	.	.	.	.	.	.	.	.	.
4B-/	.	.	.	.	.	.	8e\L	-o	.	.	.	.	.
.	.	.	.	.	.	.	8d\J	.	.	.	.	.	.
=41-	=41-	=41-	=41-	=41-	=41-	=41-	=41-	=41-	=41-	=41-	=41-	=41-	=41-
*	*	*	*	*lig	*	*	*	*	*	*	*	*	*
0c	me-	0c	me-	1g	me-	0ryy	0c	.	0g	me-	.	.	.
=42-	=42-	=42-	=42-	=42-	=42-	=42-	=42-	=42-	=42-	=42-	=42-	=42-	=42-
.	.	.	.	1cc	.	.	.	.	.	.	1g	me-	1ryy
*	*	*	*	*Xlig	*	*	*	*	*	*	*	*	*
=43-	=43-	=43-	=43-	=43-	=43-	=43-	=43-	=43-	=43-	=43-	=43-	=43-	=43-
0f;;	-o	0c;;	-o	0a;;	-o;	0ryy	0F;;	.	0f;;	-o,	0a;;	-o?	0ryy
!	!	!LO:LB:g=original	!	!	!	!	!LO:LB:g=original	!	!	!	!	!	!
=44||-	=44||-	=44||-	=44||-	=44||-	=44||-	=44||-	=44||-	=44||-	=44||-	=44||-	=44||-	=44||-	=44||-
1f	Qui-	1a	Qui-	1cc	Qui-	0ryy	0r	.	0r	.	0r	.	0ryy
=45-	=45-	=45-	=45-	=45-	=45-	=45-	=45-	=45-	=45-	=45-	=45-	=45-	=45-
1d	-a	1f	-a	1dd	-a	.	.	.	.	.	.	.	.
=46-	=46-	=46-	=46-	=46-	=46-	=46-	=46-	=46-	=46-	=46-	=46-	=46-	=46-
1c	fe-	1g	fe-	2g/	fe-	1ryy	1r	.	1r	.	1r	.	1ryy
.	.	.	.	2cc\	.	.	.	.	.	.	.	.	.
=47-	=47-	=47-	=47-	=47-	=47-	=47-	=47-	=47-	=47-	=47-	=47-	=47-	=47-
2F/	-cit	2a\	-cit	2a\	-cit	1ryy	2r	.	2r	.	2r	.	1ryy
!	!	!	!	!	!	!	!	!	!LO:SIC:v:t=custos słowny ma	!	!	!	!
2r	.	2r	.	2r	.	.	2F/	mi-	2a\	Mi-	2cc\	Mi-	.
=48-	=48-	=48-	=48-	=48-	=48-	=48-	=48-	=48-	=48-	=48-	=48-	=48-	=48-
1r	.	1r	.	1r	.	1ryy	2B-/	-hi	2f\	-hi	2b-\	-chi	1ryy
*	*	*	*	*	*	*	*	*	*custos:e	*	*	*	*
!	!	!	!	!	!	!	!	!	!LO:PB:g=original	!	!	!	!
.	.	.	.	.	.	.	2c/	ma-	2e/	ma-	2g/	ma-	.
=49-	=49-	=49-	=49-	=49-	=49-	=49-	=49-	=49-	=49-	=49-	=49-	=49-	=49-
2r	.	2r	.	2r	.	1ryy	2F/	-gna	2f\	-gna	2a\	-gna	1ryy
2f\	mi-	2a\	mi-	2cc\	mi-	.	2r	.	2r	.	2r	.	.
=50-	=50-	=50-	=50-	=50-	=50-	=50-	=50-	=50-	=50-	=50-	=50-	=50-	=50-
2B-/	-hi	2f\	-chi	2dd\	-hi	1ryy	1r	.	1r	.	1r	.	1ryy
*custos:c	*	*	*	*	*	*	*	*	*	*	*	*	*
!LO:PB:g=original	!	!	!	!	!	!	!	!	!	!	!	!	!
2c/	ma-	2e/	ma-	2cc\	ma-	.	.	.	.	.	.	.	.
=51-	=51-	=51-	=51-	=51-	=51-	=51-	=51-	=51-	=51-	=51-	=51-	=51-	=51-
2F/	-gna	2f\	-gna	2cc\	-gna	1ryy	2r	.	2r	.	2r	.	1ryy
2r	.	2r	.	2r	.	.	2f\	qui	2a\	qui	2a\	qui	.
=52-	=52-	=52-	=52-	=52-	=52-	=52-	=52-	=52-	=52-	=52-	=52-	=52-	=52-
1r	.	1r	.	1r	.	1ryy	2B-/	po-	2b-\	po-	2dd\	po-	1ryy
*	*	*	*	*	*	*	*	*	*	*	*custos:cc	*	*
!	!	!	!	!	!	!	!	!	!	!	!LO:LB:g=original	!	!
.	.	.	.	.	.	.	2c/	-tens	2g\	-tens	2cc\	-tenſ	.
=53-	=53-	=53-	=53-	=53-	=53-	=53-	=53-	=53-	=53-	=53-	=53-	=53-	=53-
2r	.	2r	.	2r	.	1ryy	2F/	eſt	2a\	eſt	2cc\	eſt,	1ryy
2F/	qui	2a\	qui	2cc\	qui	.	2r	.	2r	.	2r	.	.
=54-	=54-	=54-	=54-	=54-	=54-	=54-	=54-	=54-	=54-	=54-	=54-	=54-	=54-
2B-/	po-	2f\	po-	2b-\	po-	1ryy	1r	.	1r	.	1r	.	1ryy
2G/	-tens	2g\	-tens	2b-\	-tens	.	.	.	.	.	.	.	.
*	*	*	*	*custos:a	*	*	*	*	*	*	*	*	*
!	!	!	!	!LO:LB:g=original	!	!	!	!	!	!	!	!	!
=55-	=55-	=55-	=55-	=55-	=55-	=55-	=55-	=55-	=55-	=55-	=55-	=55-	=55-
2F/	eſt	2a\	eſt	2a\	eſt,	1ryy	2r	.	2r	.	2r	.	1ryy
2r	.	2r	.	2r	.	.	2f\	qui	2a\	qui	2a\	qui	.
=56-	=56-	=56-	=56-	=56-	=56-	=56-	=56-	=56-	=56-	=56-	=56-	=56-	=56-
0r	.	0r	.	0r	.	1ryy	2d\	po-	2f\	po-	2b-\	po-	1ryy
.	.	.	.	.	.	.	2c/	-tens	2g\	-tens	2cc\	-tenſ	.
=57-	=57-	=57-	=57-	=57-	=57-	=57-	=57-	=57-	=57-	=57-	=57-	=57-	=57-
.	.	.	.	.	.	1ryy	2f\	est	2a,>\	eſt	2cc\,>	eſt,	1ryy
.	.	.	.	.	.	.	2f\	et	2a\	et	2cc\	et	.
=58-	=58-	=58-	=58-	=58-	=58-	=58-	=58-	=58-	=58-	=58-	=58-	=58-	=58-
1r	.	1r	.	1r	.	1ryy	2f\	San-	2a\	ſan-	2cc\	ſan-	1ryy
.	.	.	.	.	.	.	2c/	-ctu(m)	2g\	-ctum	2cc\	-ktum	.
=59-	=59-	=59-	=59-	=59-	=59-	=59-	=59-	=59-	=59-	=59-	=59-	=59-	=59-
2r	.	2r	.	2r	.	1ryy	1F	no-	1a	no-	1cc	no-	1ryy
2f\	et	2a\	et	2cc\	et	.	.	.	.	.	.	.	.
=60-	=60-	=60-	=60-	=60-	=60-	=60-	=60-	=60-	=60-	=60-	=60-	=60-	=60-
2f\	san-	2f\	san-	2cc\	san-	1ryy	2F/	-men	2a\	-men	2cc\	-men	1ryy
2c/	-ctum	2g\	-ctum	2cc\	-ctum	.	2c/	e-	2g\	e-	2cc\	e-	.
*	*	*	*	*	*	*	*custos:F	*	*	*	*	*	*
!	!	!	!	!	!	!	!LO:LB:g=original	!	!	!	!	!	!
=61-	=61-	=61-	=61-	=61-	=61-	=61-	=61-	=61-	=61-	=61-	=61-	=61-	=61-
1F	no-	1f	no-	2.a\	no-	1ryy	2F/	-ius	2a,>\	-ius	2cc,>\	iuſ,	1ryy
.	.	.	.	.	.	.	2f\	et	2a\	et	2cc\	et	.
.	.	.	.	4b-\	.	.	.	.	.	.	.	.	.
=62-	=62-	=62-	=62-	=62-	=62-	=62-	=62-	=62-	=62-	=62-	=62-	=62-	=62-
2F/	-men	2f\	-men	2cc\	-men	1ryy	2f\	San-	2a\	ſan-	2b-\	ſan-	1ryy
*	*	*	*	*	*	*	*	*	*custos:g	*	*	*	*
!	!	!	!	!	!	!	!	!	!LO:LB:g=original	!	!	!	!
2c/	e-	2g\	e-	2cc\	e-	.	2c/	-ctum	2g\	-ctum	2cc\	-ktum	.
=63-	=63-	=63-	=63-	=63-	=63-	=63-	=63-	=63-	=63-	=63-	=63-	=63-	=63-
2f\	-ius	2f\	-ius	2b-,>\	-ius	1ryy	1B-	no-	1b-	no-	1dd	no-	1ryy
*	*	*custos:f	*	*	*	*	*	*	*	*	*	*	*
!	!	!LO:PB:g=original	!	!	!	!	!	!	!	!	!	!	!
2B-/	et	2f\	et	2dd\	et	.	.	.	.	.	.	.	.
=64-	=64-	=64-	=64-	=64-	=64-	=64-	=64-	=64-	=64-	=64-	=64-	=64-	=64-
2B-/	san-	2d/	san-	2b-\	ſan-	1ryy	2B-/	-men	2f,>\	-men	2dd\	-men	1ryy
2f\	-ctum	2f\	-ctum	2cc\	-ctum	.	2F/	San-	2f\	et	2cc\	e-	.
=65-	=65-	=65-	=65-	=65-	=65-	=65-	=65-	=65-	=65-	=65-	=65-	=65-	=65-
1B-	no-	1.f	no-	1dd	no-	1ryy	4B-/	-ctum	2.f\	ſan-	2b-,>\	iuſ,	1ryy
.	.	.	.	.	.	.	4c/	.	.	.	.	.	.
.	.	.	.	.	.	.	4d\	.	.	.	2b-\	et	.
.	.	.	.	.	.	.	4e\	.	4g\	-ctum	.	.	.
*custos:f	*	*	*	*	*	*	*	*	*	*	*custos:cc	*	*
!LO:LB:g=original	!	!	!	!	!	!	!	!	!	!	!LO:LB:g=original	!	!
=66-	=66-	=66-	=66-	=66-	=66-	=66-	=66-	=66-	=66-	=66-	=66-	=66-	=66-
4F/	-men	.	.	2.a\	-men	1ryy	2f\	no-	2a\	no-	2cc\	ſan-	1ryy
4G/	.	.	.	.	.	.	.	.	.	.	.	.	.
4A/	.	2c/	-men	.	.	.	2f\	-men	2a\	-men	2cc\	-ctum	.
4B-/	.	.	.	4b-\	.	.	.	.	.	.	.	.	.
=67-	=67-	=67-	=67-	=67-	=67-	=67-	=67-	=67-	=67-	=67-	=67-	=67-	=67-
0c	e-	0c	e-	0cc	e-	0ryy	0c	e-	1.g	.	2.a\	no-	1ryy
.	.	.	.	.	.	.	.	.	.	.	4b-\	-men	.
=68-	=68-	=68-	=68-	=68-	=68-	=68-	=68-	=68-	=68-	=68-	=68-	=68-	=68-
.	.	.	.	.	.	.	.	.	.	.	1cc	e-	1ryy
.	.	.	.	.	.	.	.	.	2g\	e-	.	.	.
=69-	=69-	=69-	=69-	=69-	=69-	=69-	=69-	=69-	=69-	=69-	=69-	=69-	=69-
0F;;	-ius	0c;;	-ius;	0cc;;	-ius;	0ryy	0f;;	-ius	0a;;	-ius;	0cc;<	iuſ?	0ryy
=70||-	=70||-	=70||-	=70||-	=70||-	=70||-	=70||-	=70||-	=70||-	=70||-	=70||-	=70||-	=70||-	=70||-
0r	.	0r	.	0r	.	1ryy	1f	Fe-	1a	Fe-	1a	Fe-	1ryy
=71-	=71-	=71-	=71-	=71-	=71-	=71-	=71-	=71-	=71-	=71-	=71-	=71-	=71-
.	.	.	.	.	.	1ryy	2B-/	-cit	2f\	-cit	2b-\	-cit	1ryy
.	.	.	.	.	.	.	2A/	po-	2a\	po-	2cc\	po-	.
=72-	=72-	=72-	=72-	=72-	=72-	=72-	=72-	=72-	=72-	=72-	=72-	=72-	=72-
1r	.	1r	.	1r	.	1ryy	2.B-/	-ten-	2.f\	-ten-	2.b-\	-ten-	1ryy
.	.	.	.	.	.	.	4B-/	-ti-	4f\	-ti-	4b-\	-ci-	.
=73-	=73-	=73-	=73-	=73-	=73-	=73-	=73-	=73-	=73-	=73-	=73-	=73-	=73-
2r	.	2r	.	2r	.	1ryy	2F/	-am	2f\	-am	2a\	-am	1ryy
2f\	Fe-	2a\	Fe-	2a\	Fe-	.	2r	.	2r	.	2r	.	.
=74-	=74-	=74-	=74-	=74-	=74-	=74-	=74-	=74-	=74-	=74-	=74-	=74-	=74-
2d\	-cit	2f\	-cit	2a\	-cit	0ryy	0r	.	0r	.	0r	.	0ryy
2B-/	po-	2f\	po-	2b-\	po-	.	.	.	.	.	.	.	.
=75-	=75-	=75-	=75-	=75-	=75-	=75-	=75-	=75-	=75-	=75-	=75-	=75-	=75-
2.e-X\	-ten-	2.g\	-ten-	2.b-\	-ten-	.	.	.	.	.	.	.	.
4e-\	-ti-	4g\	-ci-	4b-\	-ti-	.	.	.	.	.	.	.	.
=76-	=76-	=76-	=76-	=76-	=76-	=76-	=76-	=76-	=76-	=76-	=76-	=76-	=76-
!	!	!	!	!LO:SIC:v:t=custos słowny in	!	!	!	!	!	!	!	!	!
2B-/	-am	2f\	-am	2b-\	-am	1ryy	2r	.	2r	.	2r	.	1ryy
*	*	*	*	*custos:cc	*	*	*	*	*	*	*	*	*
*	*	*	*	*	*	*	*custos:F	*	*	*	*	*	*
!	!	!	!	!LO:PB:g=original	!	!	!	!	!	!	!	!	!
!	!	!	!	!	!	!	!LO:PB:g=original	!	!	!	!	!	!
2f\	in	2f\	in	2cc\	in	.	2F/	in	2a\	in	2a\	in	.
*	*	*	*	*	*	*	*	*	*custos:f	*	*	*	*
!	!	!	!	!	!	!	!	!	!LO:LB:g=original	!	!	!	!
=77-	=77-	=77-	=77-	=77-	=77-	=77-	=77-	=77-	=77-	=77-	=77-	=77-	=77-
!	!	!LO:SIC:v:l:s:t=bra-	!	!	!	!	!	!	!	!	!	!	!
1B-	bra-	1f	br-	1b-	bra-	1ryy	4B-/	bra-	1f	bra-	1b-	bra-	1ryy
.	.	.	.	.	.	.	4c/	.	.	.	.	.	.
.	.	.	.	.	.	.	4d\	.	.	.	.	.	.
.	.	.	.	.	.	.	4e\	.	.	.	.	.	.
=78-	=78-	=78-	=78-	=78-	=78-	=78-	=78-	=78-	=78-	=78-	=78-	=78-	=78-
2F/	-chi-	2f\	-chi-	2a\	-chi-	1ryy	2f\	-chi-	2f\	-hi-	2cc\	-chi-	1ryy
2F/	-o	2c/	-o	1cc\	-o	.	2f\	-o	2f\	-o	2cc\	-o	.
=79-	=79-	=79-	=79-	=79-	=79-	=79-	=79-	=79-	=79-	=79-	=79-	=79-	=79-
1c	ſu	1c	su-	.	.	1ryy	1c	su-	1g	su-	1cc	ſu	1ryy
.	.	.	.	2g/	ſu	.	.	.	.	.	.	.	.
=80-	=80-	=80-	=80-	=80-	=80-	=80-	=80-	=80-	=80-	=80-	=80-	=80-	=80-
1f	-o	1c	-o	0a	-o	1.ryy	1.F	-o	1.f	-o	1cc,>	-o	1ryy
=81-	=81-	=81-	=81-	=81-	=81-	=81-	=81-	=81-	=81-	=81-	=81-	=81-	=81-
2F/	di-	1c	di-	.	.	.	.	.	.	.	1a	dy-	1ryy
2f\	-ſper-	.	.	.	.	2ryy	2F/	di-	2f\	di-	.	.	.
=82-	=82-	=82-	=82-	=82-	=82-	=82-	=82-	=82-	=82-	=82-	=82-	=82-	=82-
1f,>	-sit	1f	-sper-	1a	di-	1ryy	1f	-sper-	1a	-sper-	1cc	ſper-	1ryy
*custos:F	*	*custos:f	*	*	*	*	*	*	*	*	*	*	*
!LO:LB:g=original	!	!LO:LB:g=original	!	!	!	!	!	!	!	!	!	!	!
=83-	=83-	=83-	=83-	=83-	=83-	=83-	=83-	=83-	=83-	=83-	=83-	=83-	=83-
2F/	di-	2f\	-sit	1cc	-sper-	1ryy	2f\	-sit	2a\	-sit	2cc\	-ſyt	1ryy
2f\	-ſper-	2c/	di-	.	.	.	2F/	di-	2f\	di-	2a\	-ſu-	.
=84-	=84-	=84-	=84-	=84-	=84-	=84-	=84-	=84-	=84-	=84-	=84-	=84-	=84-
1f,>	-sit	1f	-sper-	1cc	-sit	1ryy	1f	-sper-	1a	-sper-	1cc	-per-	1ryy
*	*	*	*	*	*	*	*	*	*	*	*custos:cc	*	*
!	!	!	!	!	!	!	!	!	!	!	!LO:LB:g=original	!	!
=85-	=85-	=85-	=85-	=85-	=85-	=85-	=85-	=85-	=85-	=85-	=85-	=85-	=85-
2F/	di-	2f\	-sit	2a\	di-	1ryy	2f\	-sit	2a\	-sit	2cc,>\	-boſ,	1ryy
2f\	-ſper-	2c/	di-	2cc\	-sper-	.	2F/	su-	2f\	su-	2a\	ſu-	.
=86-	=86-	=86-	=86-	=86-	=86-	=86-	=86-	=86-	=86-	=86-	=86-	=86-	=86-
2f,>\	-sit	2f\	-sper-	2cc\	-sit	1ryy	1f	-per-	1a	-per-	1cc	-per-	1ryy
2F/	su-	2f\	-sit	2a\	su-	.	.	.	.	.	.	.	.
=87-	=87-	=87-	=87-	=87-	=87-	=87-	=87-	=87-	=87-	=87-	=87-	=87-	=87-
1f	-per-	2c/	su-	1cc	-per-	1.ryy	1.F	-bos	1.a	-bos	1.cc,>	-boſ,	1.ryy
.	.	2f\	-per-	.	.	.	.	.	.	.	.	.	.
=88-	=88-	=88-	=88-	=88-	=88-	=88-	=88-	=88-	=88-	=88-	=88-	=88-	=88-
2f\	-bos	2f\	-bos	2cc\	-bos	.	.	.	.	.	.	.	.
2r	.	2r	.	2r	.	1ryy	1f\	men-	1a\	men-	1cc\	men-	1ryy
=89-	=89-	=89-	=89-	=89-	=89-	=89-	=89-	=89-	=89-	=89-	=89-	=89-	=89-
0r	.	0r	.	0r	.	.	.	.	.	.	.	.	.
*	*	*	*	*	*	*	*custos:c	*	*	*	*	*	*
!	!	!	!	!	!	!	!LO:LB:g=original	!	!	!	!	!	!
.	.	.	.	.	.	2ryy	2c/	-te	2g\	-te	2cc\	-te	2ryy
=90-	=90-	=90-	=90-	=90-	=90-	=90-	=90-	=90-	=90-	=90-	=90-	=90-	=90-
.	.	.	.	.	.	1ryy	2d\	cor-	2f\	cor-	2a\	cor-	1ryy
!	!	!	!	!	!	!	!LO:SIC:v:l:s:t=-dis	!	!	!	!	!	!
.	.	.	.	.	.	.	2B-/	-di	2.f\	-dis	2b-\	-dyſ	.
=91-	=91-	=91-	=91-	=91-	=91-	=91-	=91-	=91-	=91-	=91-	=91-	=91-	=91-
1r	.	1r	.	1r	.	1ryy	1c	su-	.	.	1g	ſu-	1ryy
.	.	.	.	.	.	.	.	.	8e/L	.	.	.	.
.	.	.	.	.	.	.	.	.	8d/J	.	.	.	.
.	.	.	.	.	.	.	.	.	2e/	su-	.	.	.
=92-	=92-	=92-	=92-	=92-	=92-	=92-	=92-	=92-	=92-	=92-	=92-	=92-	=92-
2r	.	2r	.	2r	.	1ryy	2F/	-i	2f\	-i	2a\	-i	1ryy
1f\	men-	1a\	men-	1cc\	men-	.	2r	.	2r	.	2r	.	.
*	*	*	*	*	*	*	*	*	*custos:a	*	*	*	*
!	!	!	!	!	!	!	!	!	!LO:LB:g=original	!	!	!	!
=93-	=93-	=93-	=93-	=93-	=93-	=93-	=93-	=93-	=93-	=93-	=93-	=93-	=93-
.	.	.	.	.	.	0ryy	0r	.	0r	.	0r	.	0ryy
2B-/	-te	2f\	-te	2b-\	-te	.	.	.	.	.	.	.	.
=94-	=94-	=94-	=94-	=94-	=94-	=94-	=94-	=94-	=94-	=94-	=94-	=94-	=94-
2e-X\	cor-	2g\	cor-	2b-\	cor-	.	.	.	.	.	.	.	.
2B-/	-dis	2f\	-dis	2b-\	-dis	.	.	.	.	.	.	.	.
=95-	=95-	=95-	=95-	=95-	=95-	=95-	=95-	=95-	=95-	=95-	=95-	=95-	=95-
4f\	ſu-	1f	su-	1cc	ſu-	1ryy	1r	.	1r	.	1r	.	1ryy
4eny\	.	.	.	.	.	.	.	.	.	.	.	.	.
4d\	.	.	.	.	.	.	.	.	.	.	.	.	.
4c/	.	.	.	.	.	.	.	.	.	.	.	.	.
=96-	=96-	=96-	=96-	=96-	=96-	=96-	=96-	=96-	=96-	=96-	=96-	=96-	=96-
2B-/	-i	2f\	-i	2b-,>\	-i	2ryy	2r	.	2r	.	2r	.	2ryy
1F/	men-	1f\	men-	1a\	men-	1ryy	1f\	men-	1a\	men-	1cc\	men-	1ryy
=97-	=97-	=97-	=97-	=97-	=97-	=97-	=97-	=97-	=97-	=97-	=97-	=97-	=97-
.	.	.	.	.	.	.	.	.	.	.	.	.	.
2F/	-te	2c/	-te	2cc\	-te	2ryy	2f\	-te	2a\	-te	2a\	-te	2ryy
*custos:B-	*	*	*	*	*	*	*	*	*	*	*	*	*
!LO:LB:g=original	!	!	!	!	!	!	!	!	!	!	!	!	!
=98-	=98-	=98-	=98-	=98-	=98-	=98-	=98-	=98-	=98-	=98-	=98-	=98-	=98-
4B-/	cor-	1.f	cor-	1b-	cor-	1ryy	1B-	cor-	1.f	cor-	1b-	cor-	1ryy
4c/	.	.	.	.	.	.	.	.	.	.	.	.	.
4d/	.	.	.	.	.	.	.	.	.	.	.	.	.
4e\	.	.	.	.	.	.	.	.	.	.	.	.	.
=99-	=99-	=99-	=99-	=99-	=99-	=99-	=99-	=99-	=99-	=99-	=99-	=99-	=99-
2.f\	-dis	.	.	1a	-dis	1ryy	4F/	-dis	.	.	1cc	-dyſ	1ryy
.	.	.	.	.	.	.	4G/	.	.	.	.	.	.
.	.	2c/	-dis	.	.	.	4A/	.	2f\	-dis	.	.	.
8e\L	.	.	.	.	.	.	4B-/	.	.	.	.	.	.
8d\J	.	.	.	.	.	.	.	.	.	.	.	.	.
=100-	=100-	=100-	=100-	=100-	=100-	=100-	=100-	=100-	=100-	=100-	=100-	=100-	=100-
1c	ſu-	1c	su-	1g	su-	1ryy	1c	su-	1g	ſu-	1cc	ſu-	1ryy
*	*	*	*	*custos:a	*	*	*	*	*	*	*	*	*
!	!	!	!	!LO:LB:g=original	!	!	!	!	!	!	!	!	!
=101-	=101-	=101-	=101-	=101-	=101-	=101-	=101-	=101-	=101-	=101-	=101-	=101-	=101-
0f;;	-i	0c;;	-i	0a;;	-i;	0ryy	0F;;	-i	0f;;	-i;	0cc;<	-i?	0ryy
!	!	!LO:LB:g=original	!	!	!	!	!	!	!	!	!	!	!
=102||-	=102||-	=102||-	=102||-	=102||-	=102||-	=102||-	=102||-	=102||-	=102||-	=102||-	=102||-	=102||-	=102||-
0r	.	0r	.	0r	.	1ryy	1f	E-	1a	E-	1a	E-	1ryy
=103-	=103-	=103-	=103-	=103-	=103-	=103-	=103-	=103-	=103-	=103-	=103-	=103-	=103-
.	.	.	.	.	.	1ryy	2f\	-su-	2f\	-su-	2a\	ſu-	1ryy
.	.	.	.	.	.	.	2f\	-ri-	2f\	-ri-	2a\	-ri-	.
=104-	=104-	=104-	=104-	=104-	=104-	=104-	=104-	=104-	=104-	=104-	=104-	=104-	=104-
1r	.	1r	.	1r	.	1ryy	4B-/	-en-	1f	-en-	1b-	-en-	1ryy
.	.	.	.	.	.	.	4c/	.	.	.	.	.	.
.	.	.	.	.	.	.	4d/	.	.	.	.	.	.
.	.	.	.	.	.	.	4e/	-tes	.	.	.	.	.
=105-	=105-	=105-	=105-	=105-	=105-	=105-	=105-	=105-	=105-	=105-	=105-	=105-	=105-
2r	.	2r	.	2r	.	1ryy	2f\	.	2f\	-tes	2a\	teſ	1ryy
*	*	*	*	*	*	*	*custos:f	*	*	*	*	*	*
!	!	!	!	!	!	!	!LO:LB:g=original	!	!	!	!	!	!
2f\	E-	2a\	E-	2a\	E-	.	2r	.	2r	.	2r	.	.
=106-	=106-	=106-	=106-	=106-	=106-	=106-	=106-	=106-	=106-	=106-	=106-	=106-	=106-
2f\	-ſu-	2f\	-su-	2a\	-su-	0ryy	0r	.	0r	.	0r	.	0ryy
2f\	-ri-	2f\	-ri-	2a\	-ri-	.	.	.	.	.	.	.	.
=107-	=107-	=107-	=107-	=107-	=107-	=107-	=107-	=107-	=107-	=107-	=107-	=107-	=107-
4B-/	-en-	1f	-en-	1b-	-en-	.	.	.	.	.	.	.	.
4c/	.	.	.	.	.	.	.	.	.	.	.	.	.
4d\	.	.	.	.	.	.	.	.	.	.	.	.	.
4e\	.	.	.	.	.	.	.	.	.	.	.	.	.
=108-	=108-	=108-	=108-	=108-	=108-	=108-	=108-	=108-	=108-	=108-	=108-	=108-	=108-
2f\	-tes	2f\	-tes	2a\	-tes	1ryy	2r	.	2r	.	2r	.	1ryy
2r	.	2r	.	2r	.	.	2f\	im-	2a\	im-	2a\	im-	.
*	*	*	*	*	*	*	*	*	*	*	*custos:a	*	*
!	!	!	!	!	!	!	!	!	!	!	!LO:LB:g=original	!	!
=109-	=109-	=109-	=109-	=109-	=109-	=109-	=109-	=109-	=109-	=109-	=109-	=109-	=109-
1r	.	1r	.	1r	.	1ryy	2d\	-ple-	2f\	-ple-	2a\	-ple-	2ryy
.	.	.	.	.	.	.	2B-/	-vit	2f\	-vit	2.b-\	-vit	2.ryy
=110-	=110-	=110-	=110-	=110-	=110-	=110-	=110-	=110-	=110-	=110-	=110-	=110-	=110-
2r	.	2r	.	2r	.	1ryy	1f	Bo-	1f	bo-	.	.	.
.	.	.	.	.	.	.	.	.	.	.	8a\L	.	2.ryy
.	.	.	.	.	.	.	.	.	.	.	8g\J	.	.
2f\	im-	2a\	im-	2a\	im-	.	.	.	.	.	2a\	bo-	.
=111-	=111-	=111-	=111-	=111-	=111-	=111-	=111-	=111-	=111-	=111-	=111-	=111-	=111-
2d\	-ple-	2f\	-ple-	2a\	-ple-	1ryy	2B-/	-nis	2f\	-nis	2b-\	-niſ,	1ryy
2B-/	-uit	2f\	-uit	2b-\	-uit	.	2r	.	2r	.	2r	.	.
=112-	=112-	=112-	=112-	=112-	=112-	=112-	=112-	=112-	=112-	=112-	=112-	=112-	=112-
1f	bo-	1f	bo-	1cc	bo-	1ryy	1r	.	1r	.	1r	.	1ryy
=113-	=113-	=113-	=113-	=113-	=113-	=113-	=113-	=113-	=113-	=113-	=113-	=113-	=113-
2B-/	-nis	2f\	-nis	2b-\	-nis	1ryy	2r	.	2r	.	2r	.	1ryy
*	*	*	*	*	*	*	*	*	*	*	*	*	*
2r	.	2r	.	2r	.	.	2d\	im-	2f\	im-	2a\	im-	.
=114-	=114-	=114-	=114-	=114-	=114-	=114-	=114-	=114-	=114-	=114-	=114-	=114-	=114-
1r	.	1r	.	1r	.	1ryy	2B-/	-ple-	2d/	-ple-	2b-\	-ple-	1ryy
*	*	*	*	*	*	*	*	*	*custos:g	*	*	*	*
!	!	!	!	!	!	!	!	!	!LO:LB:g=original	!	!	!	!
.	.	.	.	.	.	.	2F/	-vit	2.g\	-vit	2b-\	-vit	.
=115-	=115-	=115-	=115-	=115-	=115-	=115-	=115-	=115-	=115-	=115-	=115-	=115-	=115-
2r	.	2r	.	2r	.	1ryy	1d	bo-	.	.	1a	bo-	1ryy
.	.	.	.	.	.	.	.	.	8f\L	.	.	.	.
.	.	.	.	.	.	.	.	.	8e\J	.	.	.	.
*custos:d	*	*	*	*	*	*	*	*	*	*	*	*	*
!LO:LB:g=original	!	!	!	!	!	!	!	!	!	!	!	!	!
*	*	*	*	*	*ij	*	*	*	*	*	*	*	*
2d\	im-	2f\	im-	2a\	im-	.	.	.	2f\	bo-	.	.	.
=116-	=116-	=116-	=116-	=116-	=116-	=116-	=116-	=116-	=116-	=116-	=116-	=116-	=116-
2B-/	-ple-	2d/	-ple-	2b-\	-ple-	1ryy	2G/	-nis	2g\	-nis	2b-\	-niſ,	1ryy
2G/	-uit	2.g\	-uit	2b-\	-vit	.	2r	.	2r	.	2r	.	.
=117-	=117-	=117-	=117-	=117-	=117-	=117-	=117-	=117-	=117-	=117-	=117-	=117-	=117-
1d	bo-	.	.	1a	bo-	1ryy	1r	.	1r	.	1r	.	1ryy
.	.	8f\L	.	.	.	.	.	.	.	.	.	.	.
.	.	8e\J	.	.	.	.	.	.	.	.	.	.	.
!	!	!LO:TX:b:t=P:problem=# below	!	!	!	!	!	!	!	!	!	!	!
.	.	2f#X\	bo-	.	.	.	.	.	.	.	.	.	.
=118-	=118-	=118-	=118-	=118-	=118-	=118-	=118-	=118-	=118-	=118-	=118-	=118-	=118-
2G/	-nis	2g\	-nis	2b-\	-nis	1ryy	2r	.	2r	.	2r	.	1ryy
2r	.	2r	.	2r	.	.	2g\	im-	2g\	im-	2b-\	im-	.
*	*	*	*	*	*Xij	*	*	*	*	*	*	*	*
=119-	=119-	=119-	=119-	=119-	=119-	=119-	=119-	=119-	=119-	=119-	=119-	=119-	=119-
1r	.	1r	.	1r	.	1ryy	2e\	-ple-	2g\	-ple-	2b-\	-ple-	2ryy
.	.	.	.	.	.	.	2c/	-vit	2g\	-vit	2.cc\	-vit	2.ryy
=120-	=120-	=120-	=120-	=120-	=120-	=120-	=120-	=120-	=120-	=120-	=120-	=120-	=120-
2r	.	2r	.	2r	.	1ryy	1g	bo-	1g	bo-	.	.	.
.	.	.	.	.	.	.	.	.	.	.	8b-\L	.	2.ryy
.	.	.	.	.	.	.	.	.	.	.	8a\J	.	.
!	!	!	!	!LO:N:acc=#	!	!	!	!	!	!	!	!	!
!	!	!	!	!LO:TX:b:t=P:problem=# below	!	!	!	!	!	!	!	!	!
2g\	im-	2g\	im-	2bn\	im-	.	.	.	.	.	2b-\	bo-	.
=121-	=121-	=121-	=121-	=121-	=121-	=121-	=121-	=121-	=121-	=121-	=121-	=121-	=121-
2e\	-ple-	2g\	-ple-	2cc\	-ple-	1ryy	2c/	-nis	2g\	-nis	2cc\	-niſ,	1ryy
2c/	-uit	2g\	-uit	2.cc\	-uit	.	2r	.	2r	.	2r	.	.
=122-	=122-	=122-	=122-	=122-	=122-	=122-	=122-	=122-	=122-	=122-	=122-	=122-	=122-
1g	bo-	1g	bo-	.	.	1ryy	1r	.	1r	.	1r	.	1ryy
.	.	.	.	8bny\L	.	.	.	.	.	.	.	.	.
.	.	.	.	8a\J	.	.	.	.	.	.	.	.	.
!	!	!	!	!LO:N:acc=#	!	!	!	!	!	!	!	!	!
!	!	!	!	!LO:TX:b:t=P:problem=# below	!	!	!	!	!	!	!	!	!
.	.	.	.	2bn\	bo-	.	.	.	.	.	.	.	.
*	*	*custos:g	*	*	*	*	*	*	*	*	*	*	*
!	!	!LO:LB:g=original	!	!	!	!	!	!	!	!	!	!	!
=123-	=123-	=123-	=123-	=123-	=123-	=123-	=123-	=123-	=123-	=123-	=123-	=123-	=123-
2c/	-nis	2g\	-nis	2cc\	-nis	1ryy	2r	.	2r	.	2r	.	1ryy
*	*	*	*	*custos:a	*	*	*custos:f	*	*	*	*	*	*
!	!	!	!	!LO:LB:g=original	!	!	!LO:LB:g=original	!	!	!	!	!	!
2r	.	2r	.	2r	.	.	2f\	im-	2a\	im-	2a\	im-	.
=124-	=124-	=124-	=124-	=124-	=124-	=124-	=124-	=124-	=124-	=124-	=124-	=124-	=124-
1r	.	1r	.	1r	.	1ryy	2d\	-ple-	2f\	-ple-	2a\	-ple-	1ryy
.	.	.	.	.	.	.	2B-/	-vit	2f\	-vit	2b-\	-vit	.
=125-	=125-	=125-	=125-	=125-	=125-	=125-	=125-	=125-	=125-	=125-	=125-	=125-	=125-
2r	.	2r	.	2r	.	1ryy	1f	bo-	1f	bo-	1cc	bo-	1ryy
*	*	*	*	*	*ij	*	*	*	*	*	*	*	*
2f\	im-	2a\	im-	2a\	im-	.	.	.	.	.	.	.	.
=126-	=126-	=126-	=126-	=126-	=126-	=126-	=126-	=126-	=126-	=126-	=126-	=126-	=126-
!	!	!	!	!	!	!	!	!	!	!	!LO:SIC:v:t=custos słowny imple	!	!
2d\	-ple-	2fny\	-ple-	2a\	-ple-	1ryy	2B-/	-nis	2f\	-nis	2dd\	-niſ	1ryy
2B-/	-uit	2f\	-uit	2b-y\	-vit	.	2r	.	2r	.	2r	.	.
*	*	*	*	*	*	*	*	*	*	*	*custos:a	*	*
!	!	!	!	!	!	!	!	!	!	!	!LO:PB:g=original	!	!
=127-	=127-	=127-	=127-	=127-	=127-	=127-	=127-	=127-	=127-	=127-	=127-	=127-	=127-
1f	bo-	1f	bo-	1cc	bo-	1ryy	1r	.	1r	.	1r	.	1ryy
=128-	=128-	=128-	=128-	=128-	=128-	=128-	=128-	=128-	=128-	=128-	=128-	=128-	=128-
2B-/	-nis	2f\	-nis	2b-\	-nis	1ryy	2r	.	2r	.	2r	.	1ryy
*	*	*	*	*	*Xij	*	*	*	*	*	*	*	*
2r	.	2r	.	2r	.	.	2d\	im-	2f\	im-	2a\	im-	.
=129-	=129-	=129-	=129-	=129-	=129-	=129-	=129-	=129-	=129-	=129-	=129-	=129-	=129-
1r	.	1r	.	1r	.	1ryy	2B-/	-ple-	2f\	-ple-	2b-\	-ple-	1ryy
.	.	.	.	.	.	.	2G/	-vit	2.g\	-vit	2b-\	-vit	.
=130-	=130-	=130-	=130-	=130-	=130-	=130-	=130-	=130-	=130-	=130-	=130-	=130-	=130-
2r	.	2r	.	2r	.	1ryy	1d	bo-	.	.	1a	bo-	1ryy
.	.	.	.	.	.	.	.	.	8f\L	.	.	.	.
.	.	.	.	.	.	.	.	.	8e\J	.	.	.	.
!	!	!	!	!	!	!	!	!	!LO:TX:b:t=P:problem=# below	!	!	!	!
2d\	im-	2f\	im-	2a\	im-	.	.	.	2f#X\	bo-	.	.	.
*	*	*	*	*	*	*	*	*	*custos:g	*	*	*	*
!	!	!	!	!	!	!	!	!	!LO:LB:g=original	!	!	!	!
=131-	=131-	=131-	=131-	=131-	=131-	=131-	=131-	=131-	=131-	=131-	=131-	=131-	=131-
2B-/	-ple-	2d/	-ple-	2b-\	-ple-	1ryy	2G/	-nis	2g\	-nis	2b-\	-niſ,	1ryy
*	*	*	*	*	*	*	*	*	*	*	*	*	*
2G/	-uit	2.g\	-uit	2b-\	-uit	.	2r	.	2r	.	2r	.	.
=132-	=132-	=132-	=132-	=132-	=132-	=132-	=132-	=132-	=132-	=132-	=132-	=132-	=132-
1d	bo-	.	.	1a	bo-	1ryy	1r	.	1r	.	1r	.	1ryy
.	.	8f\L	.	.	.	.	.	.	.	.	.	.	.
.	.	8e\J	.	.	.	.	.	.	.	.	.	.	.
!	!	!LO:TX:b:t=P:problem=# below	!	!	!	!	!	!	!	!	!	!	!
.	.	2f#X\	Bo-	.	.	.	.	.	.	.	.	.	.
=133-	=133-	=133-	=133-	=133-	=133-	=133-	=133-	=133-	=133-	=133-	=133-	=133-	=133-
!	!	!	!	!LO:N:acc=#	!	!	!	!	!	!	!	!	!
!	!	!	!	!LO:TX:b:t=P:problem=# below	!	!	!	!	!	!	!	!	!
2G/	-nis	2g\	-nis	2bn\	-nis,	1ryy	2r	.	2r	.	2r	.	1ryy
*custos:B-	*	*	*	*	*	*	*	*	*	*	*	*	*
!LO:LB:g=original	!	!	!	!	!	!	!	!	!	!	!	!	!
!	!	!	!	!	!	!	!	!	!LO:TX:t=P:problem=niewidoczna nuta	!	!	!	!
2B-/	im-	2fny\	im-	2b\	im-	.	2A/	im-	2g\	im-	2b-\	im-	.
=134-	=134-	=134-	=134-	=134-	=134-	=134-	=134-	=134-	=134-	=134-	=134-	=134-	=134-
2f\	-ple-	2f\	-ple-	2a\	-ple-	1ryy	2F/	-ple-	2a\	-ple-	2cc\	-ple-	1ryy
2f\	-uit	2c/	-uit	1cc\	-uit	.	2F/	-vit	2a\	-vit	2cc\	-vit	.
=135-	=135-	=135-	=135-	=135-	=135-	=135-	=135-	=135-	=135-	=135-	=135-	=135-	=135-
1c	bo-	1c	bo-	.	.	1ryy	1c	bo-	1g	bo-	1cc	bo-	1ryy
.	.	.	.	2g/	bo-	.	.	.	.	.	.	.	.
=136-	=136-	=136-	=136-	=136-	=136-	=136-	=136-	=136-	=136-	=136-	=136-	=136-	=136-
2f\	-nis	2c/	-nis	2a,>\	-nis,	1ryy	2F/	-nis	2fny,>\	-nis	2cc,>\	-niſ,	1ryy
2f\	et	2f\	et	2a\	et	.	2F/	et	2f\	et	2cc\	et	.
=137-	=137-	=137-	=137-	=137-	=137-	=137-	=137-	=137-	=137-	=137-	=137-	=137-	=137-
2.B-/	di-	2.d/	di-	2.b-y\	di-	1ryy	2.B-/	di-	2.f\	di-	2.b-\	dy-	1ryy
4B-/	-ui-	4d/	-ui-	4b-\	-ui-	.	4B-/	-vi-	4f\	-ui-	4b-\	-wi-	.
=138-	=138-	=138-	=138-	=138-	=138-	=138-	=138-	=138-	=138-	=138-	=138-	=138-	=138-
2f\	-tes	2f\	-tes	2a\	-tes,	1ryy	2F/	-tes	2f\	-tes	2cc\	-teſ,	1ryy
*	*	*	*	*	*	*	*custos:B-	*	*	*	*	*	*
!	!	!	!	!	!	!	!LO:LB:g=original	!	!	!	!	!	!
2r	.	2r	.	2r	.	.	2r	.	2r	.	2r	.	.
=139-	=139-	=139-	=139-	=139-	=139-	=139-	=139-	=139-	=139-	=139-	=139-	=139-	=139-
0r	.	0r	.	0r	.	0ryy	0r	.	0r	.	0r	.	0ryy
=140-	=140-	=140-	=140-	=140-	=140-	=140-	=140-	=140-	=140-	=140-	=140-	=140-	=140-
1r	.	1r	.	1r	.	1ryy	1r	.	1r	.	1r	.	1ryy
=141-	=141-	=141-	=141-	=141-	=141-	=141-	=141-	=141-	=141-	=141-	=141-	=141-	=141-
2r	.	2r	.	2r	.	1ryy	2r	.	2r	.	2r	.	1ryy
2B-/	et	2f\	et	2b-\	et	.	2B-/	et	2f\	et	2b-\	et	.
*	*	*custos:c	*	*	*	*	*	*	*	*	*	*	*
!	!	!LO:LB:g=original	!	!	!	!	!	!	!	!	!	!	!
=142-	=142-	=142-	=142-	=142-	=142-	=142-	=142-	=142-	=142-	=142-	=142-	=142-	=142-
!	!	!LO:TX:a:t=rytm	!	!	!	!	!	!	!	!	!	!	!
!	!	!LO:N:vis=2	!	!	!	!	!	!	!	!	!	!	!
2.f\	di-	2.c/	di-	2.a\	di-	1ryy	2.F/	di-	2.f\	di-	2.cc\	dy-	1ryy
4f\	-ui-	4c/	-ui-	4a\	-ui-	.	4F/	-vi-	4f\	-ui-	4cc\	-wi-	.
=143-	=143-	=143-	=143-	=143-	=143-	=143-	=143-	=143-	=143-	=143-	=143-	=143-	=143-
2B-/	-tes	2c/	-tes	2b-\	-tes,	1ryy	2B-/	-tes	2f\	-tes	2b-\	-teſ,	1ryy
2r	.	2r	.	2r	.	.	2r	.	2r	.	2r	.	.
=144-	=144-	=144-	=144-	=144-	=144-	=144-	=144-	=144-	=144-	=144-	=144-	=144-	=144-
0r	.	0r	.	0r	.	0ryy	0r	.	0r	.	0r	.	0ryy
=145-	=145-	=145-	=145-	=145-	=145-	=145-	=145-	=145-	=145-	=145-	=145-	=145-	=145-
1r	.	1r	.	1r	.	1ryy	1r	.	1r	.	1r	.	1ryy
=146-	=146-	=146-	=146-	=146-	=146-	=146-	=146-	=146-	=146-	=146-	=146-	=146-	=146-
2r	.	2r	.	2r	.	1ryy	2r	.	2r	.	2r	.	1ryy
2g\	et	2d/	et	2b-\	et	.	2G/	et	2g\	et	2dd\	et	.
*	*	*	*	*custos:g	*	*	*	*	*	*	*	*	*
!	!	!	!	!LO:LB:g=original	!	!	!	!	!	!	!	!	!
=147-	=147-	=147-	=147-	=147-	=147-	=147-	=147-	=147-	=147-	=147-	=147-	=147-	=147-
2.c/	di-	2.g\	di-	2.g/	di-	1ryy	2.c/	di-	2.g\	di-	2.cc\	dy-	1ryy
4c/	-ui-	4g\	-ui-	4a\	-ui-	.	4c/	-vi-	4g\	-ui-	4cc\	-wi-	.
=148-	=148-	=148-	=148-	=148-	=148-	=148-	=148-	=148-	=148-	=148-	=148-	=148-	=148-
!	!	!	!	!	!	!	!	!	!LO:SIC:v:t=custos słowny dimi	!	!	!	!
2g\	-tes	2d/	-tes	2b-\	-tes	1ryy	2G/	-tes	2g\	-tes	2dd\	-teſ	1ryy
2r	.	2r	.	2r	.	.	2r	.	2r	.	2r	.	.
*	*	*	*	*	*	*	*	*	*	*	*custos:dd	*	*
!	!	!	!	!	!	!	!	!	!	!	!LO:LB:g=original	!	!
=149-	=149-	=149-	=149-	=149-	=149-	=149-	=149-	=149-	=149-	=149-	=149-	=149-	=149-
0r	.	0r	.	0r	.	0ryy	0r	.	0r	.	0r	.	0ryy
=150-	=150-	=150-	=150-	=150-	=150-	=150-	=150-	=150-	=150-	=150-	=150-	=150-	=150-
1r	.	1r	.	1r	.	1ryy	1r	.	1r	.	1r	.	1ryy
=151-	=151-	=151-	=151-	=151-	=151-	=151-	=151-	=151-	=151-	=151-	=151-	=151-	=151-
2r	.	2r	.	2r	.	1ryy	2r	.	2r	.	2r	.	1ryy
*	*	*	*	*	*	*	*	*	*custos:f	*	*	*	*
!	!	!	!	!	!	!	!	!	!LO:PB:g=original	!	!	!	!
2B-/	di-	2f\	di-	2dd\	di-	.	2B-/	di-	2f\	di-	2dd\	dy-	.
=152-	=152-	=152-	=152-	=152-	=152-	=152-	=152-	=152-	=152-	=152-	=152-	=152-	=152-
1B-	-mi-	1d	-mi-	1b-	-mi-	1ryy	1B-	-mi-	1f	-mi-	1dd	-mi-	1ryy
=153-	=153-	=153-	=153-	=153-	=153-	=153-	=153-	=153-	=153-	=153-	=153-	=153-	=153-
2F/	-ſit	2f\	-sit	2cc\	-sit	1ryy	2f\	-ſit	2f\	-sit	2cc\	-ſit	1ryy
*custos:B-	*	*	*	*	*	*	*	*	*	*	*	*	*
!LO:PB:g=original	!	!	!	!	!	!	!	!	!	!	!	!	!
2B-/	i-	2f\	i-	2b-\	i-	.	2B-/	in-	2f\	i-	2b-\	in	.
=154-	=154-	=154-	=154-	=154-	=154-	=154-	=154-	=154-	=154-	=154-	=154-	=154-	=154-
4f\	-na-	1c	-na-	1a	-na-	1ryy	1F	-na-	1a	-na-	1cc	a-	1ryy
4e\	.	.	.	.	.	.	.	.	.	.	.	.	.
4d\	.	.	.	.	.	.	.	.	.	.	.	.	.
4c/	.	.	.	.	.	.	.	.	.	.	.	.	.
=155-	=155-	=155-	=155-	=155-	=155-	=155-	=155-	=155-	=155-	=155-	=155-	=155-	=155-
2B-/	-nes	2f\	-nes	2b-,>\	-nes	1ryy	2B-/	-nes	2f\	-nes	2b-,>\	-neſ,	1ryy
2c/	di-	2c/	di-	2g/	di-	.	2c/	di-	2e/	di-	2g/	dy-	.
*	*	*	*	*	*	*	*custos:G	*	*	*	*	*	*
!	!	!	!	!	!	!	!LO:LB:g=original	!	!	!	!	!	!
=156-	=156-	=156-	=156-	=156-	=156-	=156-	=156-	=156-	=156-	=156-	=156-	=156-	=156-
4g\	-mi-	1c	-mi-	1g	-mi-	1ryy	1G	-sit	1g	-mi-	1b-	-mi-	1ryy
4f\	.	.	.	.	.	.	.	.	.	.	.	.	.
4e\	.	.	.	.	.	.	.	.	.	.	.	.	.
4d\	.	.	.	.	.	.	.	.	.	.	.	.	.
=157-	=157-	=157-	=157-	=157-	=157-	=157-	=157-	=157-	=157-	=157-	=157-	=157-	=157-
2c/	-ſit	2c/	-sit	2cc\	-sit	1ryy	2c/	.	2g\	-sit	2g/	-ſijt	1ryy
2f\	i-	2c/	in-	1cc\	i-	.	2F/	in-	2a\	i-	2cc\	in	.
=158-	=158-	=158-	=158-	=158-	=158-	=158-	=158-	=158-	=158-	=158-	=158-	=158-	=158-
1c	-na-	1c	-na-	.	.	1ryy	1c	-na-	1g	-na-	1cc	a-	1ryy
.	.	.	.	2g/	-na-	.	.	.	.	.	.	.	.
=159-	=159-	=159-	=159-	=159-	=159-	=159-	=159-	=159-	=159-	=159-	=159-	=159-	=159-
0f;;	-nes	0c;;	-nes	0cc;;	-nes;	0ryy	0F;>	-nes	0f;;	-nes;	0a;;	-neſ?	0ryy
=160||-	=160||-	=160||-	=160||-	=160||-	=160||-	=160||-	=160||-	=160||-	=160||-	=160||-	=160||-	=160||-	=160||-
0r	.	0r	.	0r	.	1ryy	1f	Si-	1a	Si-	1cc	Sij-	1ryy
=161-	=161-	=161-	=161-	=161-	=161-	=161-	=161-	=161-	=161-	=161-	=161-	=161-	=161-
.	.	.	.	.	.	1ryy	2d\	-cut	2a\	-cut	2dd\	-kut	1ryy
.	.	.	.	.	.	.	2f\	lo-	2a\	lo-	2cc\	lo-	.
=162-	=162-	=162-	=162-	=162-	=162-	=162-	=162-	=162-	=162-	=162-	=162-	=162-	=162-
1r	.	1r	.	1r	.	1ryy	4g\	-cu-	2g\	-cu-	2g/	-ku-	1ryy
.	.	.	.	.	.	.	4c/	.	.	.	.	.	.
.	.	.	.	.	.	.	2g\	-tus	2g\	-tus	2g/	-tuſ	.
=163-	=163-	=163-	=163-	=163-	=163-	=163-	=163-	=163-	=163-	=163-	=163-	=163-	=163-
2r	.	2r	.	2r	.	1ryy	2c/	eſt	2e/	eſt	2g/	eſt,	1ryy
2B-/	Ad	2f\	Ad	2b-\	Ad	.	2r	.	2r	.	2r	.	.
=164-	=164-	=164-	=164-	=164-	=164-	=164-	=164-	=164-	=164-	=164-	=164-	=164-	=164-
2B-/	pa-	2d/	pa-	2b-\	pat-	0ryy	0r	.	0r	.	0r	.	0ryy
*	*	*custos:e	*	*	*	*	*	*	*	*	*	*	*
!	!	!LO:LB:g=original	!	!	!	!	!	!	!	!	!	!	!
2A/	-tres	4e/	-tres	2cc\	-res	.	.	.	.	.	.	.	.
.	.	4f/	.	.	.	.	.	.	.	.	.	.	.
=165-	=165-	=165-	=165-	=165-	=165-	=165-	=165-	=165-	=165-	=165-	=165-	=165-	=165-
1G	noſ-	1g	noſ-	2dd\	noſ-	.	.	.	.	.	.	.	.
.	.	.	.	2g/	-tros	.	.	.	.	.	.	.	.
=166-	=166-	=166-	=166-	=166-	=166-	=166-	=166-	=166-	=166-	=166-	=166-	=166-	=166-
1F	-tros	1a	-tros	1cc	.	1ryy	1r	.	1r	.	1r	.	1ryy
=167-	=167-	=167-	=167-	=167-	=167-	=167-	=167-	=167-	=167-	=167-	=167-	=167-	=167-
00r	.	00r	.	00r	.	1ryy	1f	Si-	2a\	si-	2r	.	1ryy
*	*	*	*	*	*	*	*	*	*custos:a	*	*	*	*
!	!	!	!	!	!	!	!	!	!LO:LB:g=original	!	!	!	!
.	.	.	.	.	.	.	.	.	2a\	-cut	2cc\	ſij-	.
=168-	=168-	=168-	=168-	=168-	=168-	=168-	=168-	=168-	=168-	=168-	=168-	=168-	=168-
.	.	.	.	.	.	1ryy	2c/	-cut	2g\	lo-	2g/	-kut	1ryy
.	.	.	.	.	.	.	2A/	lo-	2c/	-cu-	2a\	lo-	.
=169-	=169-	=169-	=169-	=169-	=169-	=169-	=169-	=169-	=169-	=169-	=169-	=169-	=169-
.	.	.	.	.	.	1ryy	2F/	-cu-	1f	-tus	2a\	-ku-	1ryy
*	*	*	*	*	*	*	*	*	*	*	*custos:b-	*	*
!	!	!	!	!	!	!	!	!	!	!	!LO:LB:g=original	!	!
.	.	.	.	.	.	.	2A/	.	.	.	2b-\	tuſ	.
=170-	=170-	=170-	=170-	=170-	=170-	=170-	=170-	=170-	=170-	=170-	=170-	=170-	=170-
.	.	.	.	.	.	1ryy	4c/	-tus	4g\	lo-	1.cc	eſt,	1.ryy
.	.	.	.	.	.	.	4F/	lo-	4a\	-cu-	.	.	.
.	.	.	.	.	.	.	2c/	-tus	2g\	-tus	.	.	.
*	*	*	*	*	*	*	*custos:F	*	*	*	*	*	*
!	!	!	!	!	!	!	!LO:PB:g=original	!	!	!	!	!	!
=171-	=171-	=171-	=171-	=171-	=171-	=171-	=171-	=171-	=171-	=171-	=171-	=171-	=171-
2r	.	2r	.	2r	.	1ryy	2F/	eſt,	2a\	eſt	.	.	.
2f\	ad	2a\	ad	2a\	ad	.	2r	.	2r	.	2r	.	2ryy
*custos:f	*	*	*	*	*	*	*	*	*	*	*	*	*
!LO:LB:g=original	!	!	!	!	!	!	!	!	!	!	!	!	!
=172-	=172-	=172-	=172-	=172-	=172-	=172-	=172-	=172-	=172-	=172-	=172-	=172-	=172-
2f\	pa-	2f\	pa-	4a\	pa-	0ryy	0r	.	0r	.	0r	.	0ryy
.	.	.	.	4b-\	.	.	.	.	.	.	.	.	.
2e\	-tres	2g\	-tres	2.cc\	-tres	.	.	.	.	.	.	.	.
=173-	=173-	=173-	=173-	=173-	=173-	=173-	=173-	=173-	=173-	=173-	=173-	=173-	=173-
1d	noſ-	2a\	noſ-	.	.	.	.	.	.	.	.	.	.
*	*	*	*	*custos:b-	*	*	*	*	*	*	*	*	*
!	!	!	!	!LO:LB:g=original	!	!	!	!	!	!	!	!	!
.	.	.	.	8b-\L	.	.	.	.	.	.	.	.	.
.	.	.	.	8a\J	.	.	.	.	.	.	.	.	.
.	.	2f\	.	2b-\	noſ-	.	.	.	.	.	.	.	.
=174-	=174-	=174-	=174-	=174-	=174-	=174-	=174-	=174-	=174-	=174-	=174-	=174-	=174-
!	!	!	!	!	!	!	!LO:TX:t=P:problem=niewidoczna pauza?	!	!LO:TX:t=P:problem=niewidoczna pauza?	!	!LO:TX:t=P:problem=niewidoczna pauza?	!	!
2c/	-tros	2g\	-tros	2cc\	-tros	1ryy	1ryy	.	1ryy	.	1ryy	.	1ryy
2r	.	2r	.	2r	.	.	.	.	.	.	.	.	.
=175-	=175-	=175-	=175-	=175-	=175-	=175-	=175-	=175-	=175-	=175-	=175-	=175-	=175-
2r	.	2r	.	2r	.	1.ryy	2r	.	2r	.	2r	.	1.ryy
1B-/	A-	2b-\	A-	1dd\	A-	.	1B-/	a-	2b-\	ab-	1dd\	A-	.
=176-	=176-	=176-	=176-	=176-	=176-	=176-	=176-	=176-	=176-	=176-	=176-	=176-	=176-
.	.	1f	-bra-	.	.	.	.	.	1f	-ra-	.	.	.
2B-/	-bra-	.	.	2b-\	-bra-	2ryy	2B-/	-bra-	.	.	2b-\	-bra-	2ryy
=177-	=177-	=177-	=177-	=177-	=177-	=177-	=177-	=177-	=177-	=177-	=177-	=177-	=177-
1B-	-ham	1f	-ham	1b-	-ham	1ryy	1B-	-ham	1f	-ham	1b-	-ham	1ryy
=178-	=178-	=178-	=178-	=178-	=178-	=178-	=178-	=178-	=178-	=178-	=178-	=178-	=178-
00r	.	00r	.	00r	.	1ryy	1f	et	1a	et	1cc	et	1ryy
=179-	=179-	=179-	=179-	=179-	=179-	=179-	=179-	=179-	=179-	=179-	=179-	=179-	=179-
.	.	.	.	.	.	1ryy	2.B-/	se-	2.f\	se-	2.b-\	ſe-	1ryy
.	.	.	.	.	.	.	4B-/	-mi-	4g\	-mi-	4b-\	-mi-	.
=180-	=180-	=180-	=180-	=180-	=180-	=180-	=180-	=180-	=180-	=180-	=180-	=180-	=180-
.	.	.	.	.	.	1ryy	1A	-ni	1a	-ni	1cc	-ni	1ryy
=181-	=181-	=181-	=181-	=181-	=181-	=181-	=181-	=181-	=181-	=181-	=181-	=181-	=181-
.	.	.	.	.	.	1ryy	1G	e-	1b-	e-	1g	e-	1ryy
=182-	=182-	=182-	=182-	=182-	=182-	=182-	=182-	=182-	=182-	=182-	=182-	=182-	=182-
2r	.	2r	.	2r	.	1ryy	2F/	-ius	2a\	-ius	2a\	iuſ,	1ryy
2B-/	in	2f\	in	2b-\	in	.	2r	.	2r	.	2r	.	.
=183-	=183-	=183-	=183-	=183-	=183-	=183-	=183-	=183-	=183-	=183-	=183-	=183-	=183-
2e-X\	sae-	2g\	se-	2b-\	se-	1ryy	1r	.	1r	.	1r	.	1ryy
2f\	-cu-	2f\	-cu-	2a\	-cu-	.	.	.	.	.	.	.	.
=184-	=184-	=184-	=184-	=184-	=184-	=184-	=184-	=184-	=184-	=184-	=184-	=184-	=184-
2B-/	-la	2f\	-la	2b-\	-la	1ryy	2r	.	2r	.	2r	.	1ryy
2r	.	2r	.	2r	.	.	2c/	et	2g\	et	2cc\	et	.
=185-	=185-	=185-	=185-	=185-	=185-	=185-	=185-	=185-	=185-	=185-	=185-	=185-	=185-
0r	.	0r	.	0r	.	1ryy	2.f\	se-	2.a\	se-	2.cc\	ſe-	1ryy
.	.	.	.	.	.	.	4f\	-mi-	4a\	-mi-	4cc\	-mi-	.
=186-	=186-	=186-	=186-	=186-	=186-	=186-	=186-	=186-	=186-	=186-	=186-	=186-	=186-
.	.	.	.	.	.	1ryy	2c/	-ni	2g\	-ni	2cc\	-ni	1ryy
*	*	*	*	*	*	*	*	*	*custos:g	*	*	*	*
!	!	!	!	!	!	!	!	!	!LO:LB:g=original	!	!	!	!
!	!	!	!	!	!	!	!	!	!	!	!LO:N:acc=#	!	!
!	!	!	!	!	!	!	!	!	!	!	!LO:TX:b:t=P:problem=# below	!	!
.	.	.	.	.	.	.	2G/	e-	2g\	e-	2bn\	e-	.
=187-	=187-	=187-	=187-	=187-	=187-	=187-	=187-	=187-	=187-	=187-	=187-	=187-	=187-
2r	.	2r	.	2r	.	1ryy	2c/	-ius	2g\	-ius	2cc\	iuſ,	1ryy
2f\	in	2a\	in	2cc\	in	.	2r	.	2r	.	2r	.	.
=188-	=188-	=188-	=188-	=188-	=188-	=188-	=188-	=188-	=188-	=188-	=188-	=188-	=188-
2B-/	sae-	2b-\	se-	2dd\	se-	1ryy	1r	.	1r	.	1r	.	1ryy
2c/	-cu-	2g\	-cu-	2cc\	-cu-	.	.	.	.	.	.	.	.
=189-	=189-	=189-	=189-	=189-	=189-	=189-	=189-	=189-	=189-	=189-	=189-	=189-	=189-
2F/	-la	2a\	-la	2cc,>\	-la,	1ryy	2r	.	2r	.	2r	.	1ryy
2F/	in	2a\	in	2a\	in	.	2f\	in	2a\	in	2cc\	in	.
*	*	*custos:f	*	*	*	*	*	*	*	*	*	*	*
!	!	!LO:PB:g=original	!	!	!	!	!	!	!	!	!	!	!
=190-	=190-	=190-	=190-	=190-	=190-	=190-	=190-	=190-	=190-	=190-	=190-	=190-	=190-
2.B-/	sae-	2.f\	se-	2.b-\	se-	1ryy	4B-/	Se-	2.f\	se-	2.b-y\	ſe-	1ryy
.	.	.	.	.	.	.	4c/	.	.	.	.	.	.
.	.	.	.	.	.	.	4d/	.	.	.	.	.	.
4B-/	-cu-	4f\	-cu-	4b-\	-cu-	.	4e/	.	4g\	-cu-	4b-\	-ku-	.
*	*	*	*	*	*	*	*custos:f	*	*	*	*	*	*
!	!	!	!	!	!	!	!LO:LB:g=original	!	!	!	!	!	!
=191-	=191-	=191-	=191-	=191-	=191-	=191-	=191-	=191-	=191-	=191-	=191-	=191-	=191-
2F/	-la	2f\	-la	2a,>\	-la	1ryy	2.f\	.	2a\	-la	2cc\	-la	1ryy
2F/	in	2c/	in	2a\	in	.	.	.	2f\	in	2a\	in	.
.	.	.	.	.	.	.	8e\L	.	.	.	.	.	.
.	.	.	.	.	.	.	8d\J	.	.	.	.	.	.
=192-	=192-	=192-	=192-	=192-	=192-	=192-	=192-	=192-	=192-	=192-	=192-	=192-	=192-
!	!	!	!	!	!	!	!	!	!	!	!LO:TX:t=P:problem=kropka w następnym systemie	!	!
2.c/	sae-	2.c/	se-	2.g/	se-	1ryy	2.c/	.	2.g\	se-	2.cc\	ſe-	1ryy
*	*	*	*	*	*	*	*	*	*	*	*custos:cc	*	*
!	!	!	!	!	!	!	!	!	!	!	!LO:LB:g=original	!	!
4c/	-cu-	4c/	-cu-	4g/	-cu-	.	4c/	-cu-	4g\	-cu-	4cc\	-ku-	.
*	*	*	*	*custos:a	*	*	*	*	*	*	*	*	*
!	!	!	!	!LO:LB:g=original	!	!	!	!	!	!	!	!	!
=193-	=193-	=193-	=193-	=193-	=193-	=193-	=193-	=193-	=193-	=193-	=193-	=193-	=193-
0f;;	-la	0c;;	-la;	0a;;	-la;	0ryy	0F;;	-la	0f;;	-la;	0a;;	-la?	0ryy
!LO:LB:g=original	!	!	!	!	!	!	!	!	!	!	!	!	!
=194||-	=194||-	=194||-	=194||-	=194||-	=194||-	=194||-	=194||-	=194||-	=194||-	=194||-	=194||-	=194||-	=194||-
0r	.	0r	.	0r	.	1ryy	1f	Si-	1a	Si-	2.f/	Sij-	1ryy
.	.	.	.	.	.	.	.	.	.	.	4g/	-kut	.
=195-	=195-	=195-	=195-	=195-	=195-	=195-	=195-	=195-	=195-	=195-	=195-	=195-	=195-
.	.	.	.	.	.	1ryy	2d\	-cut	2f\	-cut	2a\	e-	1ryy
.	.	.	.	.	.	.	2c/	e-	2g\	e-	2cc\	-rat	.
=196-	=196-	=196-	=196-	=196-	=196-	=196-	=196-	=196-	=196-	=196-	=196-	=196-	=196-
2r	.	2r	.	2r	.	1ryy	2f\	-rat	2a\	-rat	2cc\	.	1ryy
1f\	In	1a\	In	1cc\	In	.	2r	.	2r	.	2r	.	.
=197-	=197-	=197-	=197-	=197-	=197-	=197-	=197-	=197-	=197-	=197-	=197-	=197-	=197-
.	.	.	.	.	.	0ryy	0r	.	0r	.	0r	.	0ryy
2c/	prin-	2g\	prin-	2cc\	prin-	.	.	.	.	.	.	.	.
=198-	=198-	=198-	=198-	=198-	=198-	=198-	=198-	=198-	=198-	=198-	=198-	=198-	=198-
2d\	-ci-	2f\	-ci-	2a\	-ci-	.	.	.	.	.	.	.	.
2B-/	-pi-	2f\	-pi-	2b-\	-pi-	.	.	.	.	.	.	.	.
=199-	=199-	=199-	=199-	=199-	=199-	=199-	=199-	=199-	=199-	=199-	=199-	=199-	=199-
2c/	-o	2e/	-o	2g/	-o,	1ryy	2r	.	2r	.	2r	.	1ryy
2r	.	2r	.	2r	.	.	2f\	et	2a\	et	2cc\	et	.
=200-	=200-	=200-	=200-	=200-	=200-	=200-	=200-	=200-	=200-	=200-	=200-	=200-	=200-
2r	.	2r	.	2r	.	1ryy	2c/	nu(n)c	2g\	nunc	2cc\	nunc	1ryy
2f\	et	2f\	et	2cc\	et	.	2F/	et	2a\	et	2a\	et	.
=201-	=201-	=201-	=201-	=201-	=201-	=201-	=201-	=201-	=201-	=201-	=201-	=201-	=201-
2c/	nunc	2g\	nunc	2cc\	nunc	1ryy	2c/	sem-	2g\	sem-	2cc\	ſem-	1ryy
2F/	et	2f\	et	2a\	et	.	4f\	-per	4a,>\	-per	4cc,>\	-per,	.
.	.	.	.	.	.	.	4f\	et	4a\	et	4cc\	et	.
*	*	*	*	*	*	*	*	*	*custos:g	*	*	*	*
!	!	!	!	!	!	!	!	!	!LO:LB:g=original	!	!	!	!
=202-	=202-	=202-	=202-	=202-	=202-	=202-	=202-	=202-	=202-	=202-	=202-	=202-	=202-
2c/	sem-	2g\	sem-	2cc\	sem-	1ryy	2c/	nu(n)c	2g\	nunc	2cc\	nunc	1ryy
4f\	-per	4f\	-per	4cc,>\	-per,	.	2F/	et	2a\	et	2a\	et	.
*	*	*	*	*	*ij	*	*	*	*	*	*	*	*
4f\	et	4f\	et	4cc\	et	.	.	.	.	.	.	.	.
=203-	=203-	=203-	=203-	=203-	=203-	=203-	=203-	=203-	=203-	=203-	=203-	=203-	=203-
2c/	nunc	2g\	nunc	2cc\	nunc	1ryy	2c/	sem-	2g\	sem-	2cc\	ſem-	1ryy
*	*	*	*	*	*	*	*custos:f	*	*	*	*	*	*
!	!	!	!	!	!	!	!LO:LB:g=original	!	!	!	!	!	!
2F/	et	2f\	et	2a\	et	.	4f\	-per	4a,>\	-per	4cc,>\	-per,	.
.	.	.	.	.	.	.	4f\	et	4a\	et	4cc\	et	.
=204-	=204-	=204-	=204-	=204-	=204-	=204-	=204-	=204-	=204-	=204-	=204-	=204-	=204-
2c/	sem-	2g\	sem-	2cc\	sem-	1ryy	2c/	nunc	2g\	nunc	2cc\	nunc	1ryy
*	*	*custos:f	*	*	*	*	*	*	*	*	*custos:a	*	*
!	!	!LO:LB:g=original	!	!	!	!	!	!	!	!	!LO:LB:g=original	!	!
4f\	-per	4f\	-pter	4cc,>\	-pter	.	2F/	et	2a\	et	2a\	et	.
*	*	*	*	*	*Xij	*	*	*	*	*	*	*	*
4f\	et	4f\	et	4cc\	et	.	.	.	.	.	.	.	.
=205-	=205-	=205-	=205-	=205-	=205-	=205-	=205-	=205-	=205-	=205-	=205-	=205-	=205-
2c/	nunc	2g\	nunc	2cc\	nunc	1ryy	2c/	sem-	2g\	sem-	2cc\	ſem-	1ryy
2F/	et	2f\	et	2a\	et	.	4f\	-per	4a,>\	-per	4cc,>\	-per,	.
.	.	.	.	.	.	.	4f\	et	4a\	et	4cc\	et	.
*	*	*	*	*custos:cc	*	*	*	*	*	*	*	*	*
!	!	!	!	!LO:PB:g=original	!	!	!	!	!	!	!	!	!
=206-	=206-	=206-	=206-	=206-	=206-	=206-	=206-	=206-	=206-	=206-	=206-	=206-	=206-
2c/	sem-	2g\	ſem-	2cc\	sem-	1ryy	2c/	sem-	2g\	sem-	2cc\	ſem-	1ryy
2f\	-per	2f\	-per	2cc,>\	-per,	.	2F/	-per	2a,>\	-per	2cc,>\	-per,	.
*custos:f	*	*	*	*	*	*	*	*	*	*	*	*	*
!LO:LB:g=original	!	!	!	!	!	!	!	!	!	!	!	!	!
=207-	=207-	=207-	=207-	=207-	=207-	=207-	=207-	=207-	=207-	=207-	=207-	=207-	=207-
1.f	et	1.f	et	1.a	et	1.ryy	1.F	et	1.a	et	1.cc	et	1.ryy
=208-	=208-	=208-	=208-	=208-	=208-	=208-	=208-	=208-	=208-	=208-	=208-	=208-	=208-
.	.	.	.	.	.	.	.	.	.	.	.	.	.
2f\	in	2c/	in	2a\	in	2ryy	2F/	in	2f\	in	2a\	in	2ryy
=209-	=209-	=209-	=209-	=209-	=209-	=209-	=209-	=209-	=209-	=209-	=209-	=209-	=209-
2.B-/	sae-	2.f\	se-	2.dd\	se-	1ryy	2.B-/	Se-	2.f\	se-	2.b-\	ſe-	1ryy
4B-/	-cu-	4f\	-cu-	4dd\	-cu-	.	4B-/	-cu-	4f\	-cu-	4b-\	-ku-	.
=210-	=210-	=210-	=210-	=210-	=210-	=210-	=210-	=210-	=210-	=210-	=210-	=210-	=210-
2f\	-la	2f\	-la	2a\	-la	1.ryy	2F/	-la	2f\	-la	2cc,>\	-la	1.ryy
1F/	sae-	1f\	se-	1a\	se-	.	1f\	Se-	1a\	se-	1cc\	ſe-	.
=211-	=211-	=211-	=211-	=211-	=211-	=211-	=211-	=211-	=211-	=211-	=211-	=211-	=211-
.	.	.	.	.	.	.	.	.	.	.	.	.	.
2F/	-cu-	2c/	-cu-	2a\	-cu-	2ryy	2f\	.	2a\	-cu-	2a\	-ku-	2ryy
=212-	=212-	=212-	=212-	=212-	=212-	=212-	=212-	=212-	=212-	=212-	=212-	=212-	=212-
2B-/	-lo-	2f\	-lo-	2dd\	-lo-	1ryy	2B-/	-cu-	2f\	-lo-	2b-\	-lo-	1ryy
2f\	-rum	2c/	-rum	2a\	-rum	.	2F/	-rum	2f\	-rum	2a\	-rum	.
=213-	=213-	=213-	=213-	=213-	=213-	=213-	=213-	=213-	=213-	=213-	=213-	=213-	=213-
1c	a-	1c	a-	1cc	a-	1ryy	1c	a-	1g	a-	1cc	a-	1ryy
=214-	=214-	=214-	=214-	=214-	=214-	=214-	=214-	=214-	=214-	=214-	=214-	=214-	=214-
1f	-men	1c	-men	1cc	-men,	1ryy	2F/	-men	2f\	-men	2cc,>\	-men	1ryy
*	*	*	*	*	*	*	*	*	*custos:a	*	*	*	*
!	!	!	!	!	!	!	!	!	!LO:LB:g=original	!	!	!	!
.	.	.	.	.	.	.	4f\	Se-	4a\	se-	4a\	ſe-	.
.	.	.	.	.	.	.	4f\	-cu-	4a\	-cu-	4a\	-ku-	.
=215-	=215-	=215-	=215-	=215-	=215-	=215-	=215-	=215-	=215-	=215-	=215-	=215-	=215-
0r	.	0r	.	0r	.	1ryy	2B-/	-lo-	2f\	-lo-	2b-\	-lo-	1ryy
*	*	*	*	*	*	*	*custos:G	*	*	*	*	*	*
!	!	!	!	!	!	!	!LO:LB:g=original	!	!	!	!	!	!
.	.	.	.	.	.	.	2G/	-rum	2b-\	-rum	2dd\	-rum	.
=216-	=216-	=216-	=216-	=216-	=216-	=216-	=216-	=216-	=216-	=216-	=216-	=216-	=216-
.	.	.	.	.	.	1ryy	1c	a-	1g	a-	1cc	a-	1ryy
=217-	=217-	=217-	=217-	=217-	=217-	=217-	=217-	=217-	=217-	=217-	=217-	=217-	=217-
2r	.	2r	.	2r	.	1ryy	1F	-men	1a	-men	1cc	-men,	1ryy
4f\	sae-	4a\	se-	4a\	se-	.	.	.	.	.	.	.	.
4f\	-cu-	4a\	-cu-	4a\	-cu-	.	.	.	.	.	.	.	.
=218-	=218-	=218-	=218-	=218-	=218-	=218-	=218-	=218-	=218-	=218-	=218-	=218-	=218-
2B-/	-lo-	2f\	-lo-	2b-\	-lo-	0ryy	0r	.	0r	.	0r	.	0ryy
2G/	-rum	2b-\	-rum	2dd\	-rum	.	.	.	.	.	.	.	.
=219-	=219-	=219-	=219-	=219-	=219-	=219-	=219-	=219-	=219-	=219-	=219-	=219-	=219-
1c	a-	1g	a-	1cc	a-	.	.	.	.	.	.	.	.
=220-	=220-	=220-	=220-	=220-	=220-	=220-	=220-	=220-	=220-	=220-	=220-	=220-	=220-
1F	-men	1a	-men	1cc	-men	1ryy	2r	.	2r	.	2r	.	1ryy
.	.	.	.	.	.	.	4f\	Se-	4a\	se-	4cc\	ſe-	.
.	.	.	.	.	.	.	4f\	-cu-	4a\	-cu-	4cc\	-ku-	.
*	*	*custos:a	*	*	*	*	*	*	*	*	*	*	*
!	!	!LO:LB:g=original	!	!	!	!	!	!	!	!	!	!	!
=221-	=221-	=221-	=221-	=221-	=221-	=221-	=221-	=221-	=221-	=221-	=221-	=221-	=221-
0r	.	0r	.	0r	.	1ryy	2B-/	-lo-	2b-\	-lo-	2dd\	-lo-	1ryy
.	.	.	.	.	.	.	2G/	-rum	4b-\	-rum	2b-\	-rum	.
.	.	.	.	.	.	.	.	.	4a\	.	.	.	.
*	*	*	*	*	*	*	*	*	*	*	*custos:cc	*	*
!	!	!	!	!	!	!	!	!	!	!	!LO:LB:g=original	!	!
=222-	=222-	=222-	=222-	=222-	=222-	=222-	=222-	=222-	=222-	=222-	=222-	=222-	=222-
.	.	.	.	.	.	1ryy	1c	a-	1g	a-	1cc	a-	1ryy
=223-	=223-	=223-	=223-	=223-	=223-	=223-	=223-	=223-	=223-	=223-	=223-	=223-	=223-
2r	.	2r	.	2r	.	1ryy	1F	-men	1a	-men	1a	-men,	1ryy
4f\	sae-	4a\	se-	4cc\	se-	.	.	.	.	.	.	.	.
4f\	-cu-	4a\	-cu-	4cc\	-cu-	.	.	.	.	.	.	.	.
*	*	*	*	*custos:dd	*	*	*	*	*	*	*	*	*
!	!	!	!	!LO:LB:g=original	!	!	!	!	!	!	!	!	!
=224-	=224-	=224-	=224-	=224-	=224-	=224-	=224-	=224-	=224-	=224-	=224-	=224-	=224-
2B-/	-lo-	2f\	-lo-	2dd\	-lo-	0ryy	0r	.	0r	.	0r	.	0ryy
2G/	-rum	4b-\	-rum	2b-\	-rum	.	.	.	.	.	.	.	.
.	.	4a\	.	.	.	.	.	.	.	.	.	.	.
=225-	=225-	=225-	=225-	=225-	=225-	=225-	=225-	=225-	=225-	=225-	=225-	=225-	=225-
1c	a-	4g\	.	1cc	a-	.	.	.	.	.	.	.	.
.	.	4f\	.	.	.	.	.	.	.	.	.	.	.
.	.	2g\	a-	.	.	.	.	.	.	.	.	.	.
*custos:F	*	*	*	*	*	*	*	*	*	*	*	*	*
!LO:LB:g=original	!	!	!	!	!	!	!	!	!	!	!	!	!
=226-	=226-	=226-	=226-	=226-	=226-	=226-	=226-	=226-	=226-	=226-	=226-	=226-	=226-
2F/	-men	2a\	-men	2a,>\	-men	2ryy	2r	.	2r	.	2r	.	1.ryy
1f\	et	1f\	et	2a\	et	1ryy	1F/	et	1a\	et	1cc\	et	.
=227-	=227-	=227-	=227-	=227-	=227-	=227-	=227-	=227-	=227-	=227-	=227-	=227-	=227-
.	.	.	.	1a	in	.	.	.	.	.	.	.	.
2f\	in	2c/	in	.	.	2ryy	2F/	in	2f\	in	2a\	in	2ryy
=228-	=228-	=228-	=228-	=228-	=228-	=228-	=228-	=228-	=228-	=228-	=228-	=228-	=228-
2.B-/	sae-	2.f\	se-	2.dd\	se-	1ryy	2.B-/	Se-	2.f\	ſe-	2.b-\	ſe-	1ryy
4B-/	-cu-	4f\	-cu-	4dd\	-cu-	.	4B-/	-cu-	4f\	-cu-	4b-\	-ku-	.
=229-	=229-	=229-	=229-	=229-	=229-	=229-	=229-	=229-	=229-	=229-	=229-	=229-	=229-
2f\	-la	2f\	-la	2a\	-la	1.ryy	2F/	-la	2f\	-la	2a\	-la	1.ryy
1F/	sae-	1f\	se-	1a\	se-	.	1f\	Se-	1f\	se-	1a\	ſe-	.
=230-	=230-	=230-	=230-	=230-	=230-	=230-	=230-	=230-	=230-	=230-	=230-	=230-	=230-
.	.	.	.	.	.	.	.	.	.	.	.	.	.
2F/	-cu-	2c/	-cu-	2a\	-cu-	2ryy	2f\	-cu-	2f\	-cu-	2a\	-ku-	2ryy
=231-	=231-	=231-	=231-	=231-	=231-	=231-	=231-	=231-	=231-	=231-	=231-	=231-	=231-
1B-	-lo-	1.f	-lo-	1dd	-lo-	1ryy	4B-/	-lo-	1f	-lo-	1b-	-lo-	1ryy
.	.	.	.	.	.	.	4c/	.	.	.	.	.	.
.	.	.	.	.	.	.	4d\	.	.	.	.	.	.
.	.	.	.	.	.	.	4e\	.	.	.	.	.	.
=232-	=232-	=232-	=232-	=232-	=232-	=232-	=232-	=232-	=232-	=232-	=232-	=232-	=232-
4F/	-rum	.	.	2.a\	-rum	1ryy	2.f\	.	1f	-rum	1a	-rum	1ryy
4G/	.	.	.	.	.	.	.	.	.	.	.	.	.
4A/	.	2c/	-rum	.	.	.	.	.	.	.	.	.	.
4B-/	.	.	.	4b-\	.	.	8e\L	-rum	.	.	.	.	.
.	.	.	.	.	.	.	8d\J	.	.	.	.	.	.
*	*	*	*	*	*	*	*custos:c	*	*	*	*	*	*
!	!	!	!	!	!	!	!LO:LB:g=original	!	!	!	!	!	!
=233-	=233-	=233-	=233-	=233-	=233-	=233-	=233-	=233-	=233-	=233-	=233-	=233-	=233-
0c	A-	0c	a-	1.cc	a-	0ryy	0c	a-	0g	a-	0g	a-	0ryy
=234-	=234-	=234-	=234-	=234-	=234-	=234-	=234-	=234-	=234-	=234-	=234-	=234-	=234-
.	.	.	.	2g/	.	.	.	.	.	.	.	.	.
=235-	=235-	=235-	=235-	=235-	=235-	=235-	=235-	=235-	=235-	=235-	=235-	=235-	=235-
0f;;	-men	0c;;	-men	0a;;	-men;	0ryy	0F;;	-men:	0f;;	-men	0a;;	-men?	0ryy
=-	=-	=-	=-	=-	=-	=-	=-	=-	=-	=-	=-	=-	=-
*-	*-	*-	*-	*-	*-	*-	*-	*-	*-	*-	*-	*-	*-
!!!system-decoration: [(g1)],[(g2)]
!!!AIN: 8 empty
!!!ENC: Andrzej Gręziak
!!!END: 2021-10-18
!!!EED: Jędrzej Mróz
!!!ESR: 2021-10-22
!!!RDF**kern: > = above
!!!RDF**kern: < = below
